; generated by PrusaSlicer 2.8.0+win64 on 2025-12-04 at 09:50:58 UTC


;
;
; 

; external perimeters extrusion width = 0.60mm
; perimeters extrusion width = 0.50mm
; infill extrusion width = 0.50mm
; solid infill extrusion width = 0.50mm
; top infill extrusion width = 0.45mm
; support material extrusion width = 0.38mm
; first layer extrusion width = 0.42mm

M73 P0 R144
M73 Q0 S146
M201 X1000 Y1000 Z200 E5000 ; sets maximum accelerations, mm/sec^2
M203 X200 Y200 Z12 E120 ; sets maximum feedrates, mm / sec
M204 S1250 T1250 ; sets acceleration (S) and retract acceleration (R), mm/sec^2
M205 X8.00 Y8.00 Z0.40 E4.50 ; sets the jerk limits, mm/sec
M205 S0 T0 ; sets the minimum extruding and travel feed rate, mm/sec

; printing object drain_controller_bottom.stl id:0 copy 0
; stop printing object drain_controller_bottom.stl id:0 copy 0

;TYPE:Custom
M862.3 P "MK3S" ; printer model check
M862.1 P0.4 ; nozzle diameter check
M115 U3.13.3 ; tell printer latest fw version
G90 ; use absolute coordinates
M83 ; extruder relative mode
M104 S230 ; set extruder temp
M140 S85 ; set bed temp
M190 S85 ; wait for bed temp
M109 S230 ; wait for extruder temp
G28 W ; home all without mesh bed level
G80 X121.512 Y7.34462 W108.5 H94 ; mesh bed levelling

G1 Z0.2 F720
G1 Y-3 F1000 ; go outside print area
G92 E0
G1 X60 E9 F1000 ; intro line
G1 X100 E12.5 F1000 ; intro line
M73 Q0 S145

G92 E0
M221 S95

; Don't change E values below. Excessive value can damage the printer.

M907 E538 ; set extruder motor current
G21 ; set units to millimeters
G90 ; use absolute coordinates
M83 ; use relative distances for extrusion

M900 K0.08 ; Filament gcode LA 1.5
M900 K45 ; Filament gcode LA 1.0




M107
;LAYER_CHANGE
;Z:0.2
;HEIGHT:0.2
G1 E-1 F2100
G1 Z.4 F720
; printing object drain_controller_bottom.stl id:0 copy 0
G1 X178.685 Y10.657 F10800
G1 Z.2 F720
G1 E1 F2100
M204 S800
;TYPE:Perimeter
;WIDTH:0.419999
G1 F1200
G1 X178.911 Y11.085 E.01518
G1 X179.092 Y11.625 E.01786
G1 X179.169 Y12.156 E.01682
G1 X179.155 Y12.692 E.01681
G1 X179.051 Y13.219 E.01684
G1 X178.86 Y13.72 E.01681
G1 X178.586 Y14.181 E.01681
G1 X178.239 Y14.59 E.01682
G1 X177.828 Y14.934 E.0168
G1 X177.364 Y15.204 E.01683
G1 X176.861 Y15.391 E.01683
G1 X176.334 Y15.491 E.01682
G1 X175.798 Y15.5 E.01681
G1 X175.268 Y15.418 E.01682
G1 X174.759 Y15.248 E.01683
G1 X174.315 Y15.011 E.01578
G1 X173.863 Y14.665 E.01785
G1 X173.502 Y14.269 E.0168
G1 X173.213 Y13.817 E.01682
G1 X173.004 Y13.322 E.01685
G1 X172.882 Y12.8 E.01681
G1 X172.85 Y12.265 E.0168
G1 X172.909 Y11.732 E.01681
G1 X173.048 Y11.248 E.01579
G1 X173.291 Y10.733 E.01785
G1 X173.602 Y10.296 E.01682
G1 X173.983 Y9.919 E.01681
G1 X174.422 Y9.611 E.01681
G1 X174.907 Y9.381 E.01683
G1 X175.424 Y9.237 E.01683
G1 X175.924 Y9.185 E.01576
G1 X176.493 Y9.219 E.01787
G1 X177.014 Y9.345 E.01681
G1 X177.507 Y9.558 E.01684
G1 X177.956 Y9.85 E.01679
G1 X178.35 Y10.215 E.01684
G1 X178.651 Y10.608 E.01552
M204 S1000
G1 X178.651 Y10.608 F10800
G1 X178.356 Y10.841
M204 S800
G1 F1200
G1 X178.557 Y11.215 E.01331
G1 X178.72 Y11.689 E.01572
G1 X178.792 Y12.156 E.01482
G1 X178.784 Y12.629 E.01483
G1 X178.696 Y13.093 E.01481
G1 X178.531 Y13.536 E.01482
G1 X178.293 Y13.944 E.01481
G1 X177.99 Y14.307 E.01483
G1 X177.63 Y14.613 E.01481
G1 X177.223 Y14.854 E.01483
G1 X176.782 Y15.022 E.0148
G1 X176.318 Y15.114 E.01483
G1 X175.846 Y15.126 E.0148
G1 X175.245 Y15.017 E.01915
G1 X174.929 Y14.912 E.01044
G1 X174.536 Y14.706 E.01391
G1 X174.135 Y14.404 E.01574
G1 X173.814 Y14.057 E.01482
G1 X173.556 Y13.661 E.01482
G1 X173.369 Y13.227 E.01482
G1 X173.258 Y12.768 E.01481
G1 X173.226 Y12.297 E.0148
G1 X173.274 Y11.827 E.01481
G1 X173.393 Y11.4 E.0139
G1 X173.603 Y10.944 E.01574
G1 X173.875 Y10.557 E.01483
G1 X174.207 Y10.222 E.01479
G1 X174.592 Y9.947 E.01483
G1 X175.018 Y9.742 E.01482
G1 X175.472 Y9.611 E.01482
G1 X175.912 Y9.562 E.01388
G1 X176.413 Y9.587 E.01573
G1 X176.874 Y9.695 E.01485
G1 X177.309 Y9.879 E.01481
G1 X177.707 Y10.133 E.0148
G1 X178.056 Y10.452 E.01483
G1 X178.322 Y10.792 E.01354
M204 S1000
G1 X178.322 Y10.792 F10800
G1 X178.027 Y11.025
M204 S800
;TYPE:External perimeter
G1 F1200
G1 X178.202 Y11.344 E.01141
G1 X178.348 Y11.753 E.01362
G1 X178.415 Y12.156 E.01281
G1 X178.412 Y12.565 E.01282
G1 X178.34 Y12.967 E.0128
G1 X178.201 Y13.352 E.01283
G1 X178 Y13.707 E.01279
G1 X177.741 Y14.024 E.01283
G1 X177.432 Y14.292 E.01282
G1 X177.083 Y14.504 E.0128
G1 X176.702 Y14.654 E.01284
G1 X176.302 Y14.737 E.01281
G1 X175.894 Y14.752 E.0128
G1 X175.356 Y14.657 E.01713
G1 X175.098 Y14.575 E.00849
G1 X174.758 Y14.4 E.01199
G1 X174.408 Y14.143 E.01361
G1 X174.127 Y13.846 E.01282
G1 X173.9 Y13.506 E.01282
G1 X173.734 Y13.132 E.01283
G1 X173.634 Y12.736 E.01281
G1 X173.602 Y12.329 E.0128
G1 X173.639 Y11.922 E.01281
G1 X173.738 Y11.552 E.01201
G1 X173.916 Y11.155 E.01364
G1 X174.147 Y10.818 E.01281
G1 X174.432 Y10.525 E.01282
G1 X174.762 Y10.284 E.01281
G1 X175.128 Y10.102 E.01282
G1 X175.52 Y9.985 E.01283
G1 X175.9 Y9.939 E.012
G1 X176.334 Y9.956 E.01362
G1 X176.733 Y10.045 E.01282
G1 X177.111 Y10.2 E.01281
G1 X177.458 Y10.416 E.01282
G1 X177.763 Y10.689 E.01283
G1 X177.992 Y10.976 E.01151
M204 S1000
;WIPE_START
G1 F8640
G1 X178.027 Y11.025 E-.0139
G1 X178.202 Y11.344 E-.08401
G1 X178.348 Y11.753 E-.10028
G1 X178.415 Y12.156 E-.09433
G1 X178.412 Y12.565 E-.09444
G1 X178.34 Y12.967 E-.0943
G1 X178.201 Y13.352 E-.09451
G1 X178 Y13.707 E-.0942
G1 X177.741 Y14.024 E-.09452
G1 X177.432 Y14.292 E-.09445
G1 X177.083 Y14.504 E-.09429
G1 X176.895 Y14.578 E-.04677
;WIPE_END
G1 Z.4 F720
G1 X174.516 Y93.608 F10800
G1 Z.2 F720
G1 E1 F2100
M204 S800
;TYPE:Perimeter
G1 F1200
G1 X174.887 Y93.492 E.01219
G1 X175.387 Y93.408 E.0159
G1 X175.891 Y93.431 E.01582
G1 X176.074 Y93.457 E.0058
G1 X176.727 Y93.677 E.02161
G1 X177.215 Y93.959 E.01767
G1 X177.566 Y94.254 E.01438
G1 X177.928 Y94.685 E.01765
G1 X178.157 Y95.082 E.01437
G1 X178.35 Y95.611 E.01766
;WIDTH:0.461062
G1 X178.41 Y95.837 E.00813
;WIDTH:0.502124
G1 X178.47 Y96.063 E.00893
G1 X178.47 Y96.626 E.0215
;WIDTH:0.514174
G1 X178.456 Y96.863 E.0093
G1 X178.306 Y97.235 E.01572
;WIDTH:0.467087
G1 X178.157 Y97.607 E.01413
;WIDTH:0.419999
G1 X177.928 Y98.004 E.01437
G1 X177.566 Y98.436 E.01767
G1 X177.215 Y98.73 E.01436
G1 X176.727 Y99.012 E.01767
;WIDTH:0.463722
G1 X176.587 Y99.086 E.00554
;WIDTH:0.507445
G1 X176.447 Y99.16 E.00612
;WIDTH:0.551167
G1 X176.307 Y99.233 E.00667
G1 X175.747 Y99.307 E.02387
;WIDTH:0.50188
G1 X175.276 Y99.307 E.01797
G1 X175.002 Y99.238 E.01078
;WIDTH:0.46094
G1 X174.728 Y99.169 E.00982
;WIDTH:0.419999
G1 X174.297 Y99.012 E.01438
G1 X173.809 Y98.73 E.01767
G1 X173.458 Y98.436 E.01436
G1 X173.096 Y98.004 E.01767
G1 X172.867 Y97.607 E.01437
;WIDTH:0.446736
G1 X172.661 Y97.082 E.01894
;WIDTH:0.480456
G1 X172.615 Y96.972 E.00434
;WIDTH:0.514175
G1 X172.568 Y96.863 E.00465
G1 X172.553 Y96.063 E.03135
;WIDTH:0.502121
G1 X172.71 Y95.573 E.01965
;WIDTH:0.46106
G1 X172.867 Y95.082 E.01792
;WIDTH:0.419999
G1 X173.096 Y94.685 E.01437
G1 X173.458 Y94.254 E.01765
G1 X173.809 Y93.959 E.01438
G1 X174.297 Y93.677 E.01767
G1 X174.459 Y93.626 E.00533
M204 S1000
G1 X174.459 Y93.626 F10800
G1 X174.643 Y93.956
M204 S800
G1 F1200
G1 X174.953 Y93.863 E.01015
G1 X175.494 Y93.782 E.01715
G1 X175.994 Y93.826 E.01574
G1 X176.538 Y94.004 E.01795
G1 X177.026 Y94.285 E.01766
G1 X177.277 Y94.496 E.01028
G1 X177.639 Y94.928 E.01767
G1 X177.803 Y95.211 E.01026
G1 X177.995 Y95.74 E.01765
G1 X178.052 Y96.063 E.01028
G1 X178.052 Y96.626 E.01765
G1 X177.995 Y96.949 E.01028
G1 X177.803 Y97.478 E.01765
G1 X177.639 Y97.762 E.01028
G1 X177.277 Y98.193 E.01765
G1 X177.026 Y98.404 E.01028
G1 X176.538 Y98.685 E.01766
G1 X176.23 Y98.797 E.01028
G1 X175.675 Y98.895 E.01767
G1 X175.348 Y98.895 E.01025
G1 X174.793 Y98.797 E.01767
G1 X174.486 Y98.685 E.01025
G1 X173.998 Y98.404 E.01766
G1 X173.747 Y98.193 E.01028
G1 X173.385 Y97.762 E.01765
G1 X173.221 Y97.478 E.01028
G1 X173.028 Y96.949 E.01766
G1 X172.972 Y96.626 E.01028
G1 X172.972 Y96.063 E.01765
G1 X173.028 Y95.741 E.01025
G1 X173.221 Y95.211 E.01769
G1 X173.385 Y94.928 E.01026
G1 X173.747 Y94.496 E.01767
G1 X173.998 Y94.285 E.01028
G1 X174.486 Y94.004 E.01766
G1 X174.585 Y93.974 E.00324
M204 S1000
G1 X174.585 Y93.974 F10800
G1 X174.771 Y94.308
M204 S800
G1 F1200
G1 X175.389 Y94.168 E.01987
G1 X175.914 Y94.194 E.01648
G1 X176.35 Y94.33 E.01432
G1 X176.838 Y94.612 E.01767
G1 X176.988 Y94.738 E.00614
G1 X177.35 Y95.17 E.01767
G1 X177.448 Y95.34 E.00615
G1 X177.641 Y95.869 E.01766
G1 X177.675 Y96.063 E.00618
G1 X177.675 Y96.626 E.01765
G1 X177.641 Y96.82 E.00618
G1 X177.448 Y97.349 E.01766
G1 X177.35 Y97.519 E.00615
G1 X176.988 Y97.951 E.01767
G1 X176.837 Y98.077 E.00617
G1 X176.35 Y98.359 E.01764
G1 X176.165 Y98.426 E.00617
G1 X175.61 Y98.524 E.01767
G1 X175.414 Y98.524 E.00615
G1 X174.859 Y98.426 E.01767
G1 X174.674 Y98.359 E.00617
G1 X174.186 Y98.077 E.01767
G1 X174.036 Y97.951 E.00614
G1 X173.674 Y97.519 E.01767
G1 X173.575 Y97.349 E.00617
G1 X173.383 Y96.82 E.01765
G1 X173.349 Y96.626 E.00618
G1 X173.349 Y96.063 E.01765
G1 X173.383 Y95.869 E.00618
G1 X173.575 Y95.34 E.01765
G1 X173.674 Y95.17 E.00617
G1 X174.036 Y94.738 E.01767
G1 X174.186 Y94.612 E.00614
G1 X174.674 Y94.33 E.01767
G1 X174.713 Y94.321 E.00125
M204 S1000
G1 X174.713 Y94.321 F10800
G1 X174.896 Y94.65
M204 S800
;TYPE:External perimeter
G1 F1200
G1 X175.456 Y94.539 E.0179
G1 X175.834 Y94.563 E.01188
G1 X176.161 Y94.657 E.01067
G1 X176.649 Y94.939 E.01767
G1 X177.061 Y95.412 E.01967
G1 X177.287 Y95.998 E.01969
G1 X177.298 Y96.626 E.01969
G1 X177.094 Y97.22 E.01969
G1 X176.699 Y97.709 E.01971
G1 X176.161 Y98.032 E.01968
G1 X175.545 Y98.153 E.01968
G1 X174.924 Y98.055 E.01971
G1 X174.375 Y97.751 E.01968
G1 X173.962 Y97.277 E.01971
G1 X173.737 Y96.691 E.01968
G1 X173.726 Y96.063 E.01969
G1 X173.93 Y95.469 E.01969
G1 X174.325 Y94.981 E.01969
G1 X174.84 Y94.67 E.01886
M204 S1000
;WIPE_START
G1 F8640
G1 X174.896 Y94.65 E-.01373
G1 X175.456 Y94.539 E-.13182
G1 X175.834 Y94.563 E-.08746
G1 X176.161 Y94.657 E-.07856
G1 X176.649 Y94.939 E-.13014
G1 X177.061 Y95.412 E-.14484
G1 X177.287 Y95.998 E-.14502
G1 X177.298 Y96.626 E-.14503
G1 X177.124 Y97.132 E-.1234
;WIPE_END
G1 Z.4 F720
G1 X129.074 Y98.196 F10800
G1 Z.2 F720
G1 E1 F2100
M204 S800
;TYPE:Perimeter
G1 F1200
G1 X128.766 Y98.565 E.01507
G1 X128.328 Y98.934 E.01796
G1 X127.864 Y99.204 E.01683
G1 X127.361 Y99.391 E.01683
G1 X126.834 Y99.491 E.01682
G1 X126.298 Y99.5 E.01681
G1 X125.768 Y99.418 E.01682
G1 X125.259 Y99.248 E.01683
G1 X124.786 Y98.995 E.01682
G1 X124.363 Y98.665 E.01682
G1 X124.002 Y98.269 E.0168
G1 X123.713 Y97.817 E.01682
G1 X123.504 Y97.322 E.01685
G1 X123.382 Y96.8 E.01681
G1 X123.35 Y96.265 E.0168
G1 X123.409 Y95.732 E.01681
G1 X123.558 Y95.216 E.01684
G1 X123.791 Y94.733 E.01681
G1 X124.102 Y94.296 E.01682
G1 X124.483 Y93.919 E.01681
G1 X124.922 Y93.611 E.01681
G1 X125.407 Y93.381 E.01683
G1 X125.924 Y93.237 E.01683
G1 X126.424 Y93.185 E.01576
G1 X126.993 Y93.219 E.01787
G1 X127.514 Y93.345 E.01681
G1 X128.007 Y93.558 E.01684
G1 X128.456 Y93.85 E.01679
G1 X128.85 Y94.215 E.01684
G1 X129.176 Y94.64 E.01679
G1 X129.411 Y95.085 E.01578
G1 X129.592 Y95.625 E.01786
G1 X129.669 Y96.156 E.01682
G1 X129.655 Y96.692 E.01681
G1 X129.551 Y97.219 E.01684
G1 X129.36 Y97.72 E.01681
G1 X129.107 Y98.146 E.01553
M204 S1000
G1 X129.107 Y98.146 F10800
G1 X128.781 Y97.959
M204 S800
G1 F1200
G1 X128.49 Y98.307 E.01422
G1 X128.13 Y98.613 E.01481
G1 X127.723 Y98.854 E.01483
G1 X127.282 Y99.022 E.0148
G1 X126.818 Y99.114 E.01483
G1 X126.346 Y99.126 E.0148
G1 X125.878 Y99.058 E.01483
G1 X125.429 Y98.912 E.0148
G1 X125.01 Y98.692 E.01484
G1 X124.565 Y98.331 E.01797
G1 X124.314 Y98.057 E.01165
G1 X124.056 Y97.661 E.01482
G1 X123.869 Y97.227 E.01482
G1 X123.758 Y96.768 E.01481
G1 X123.726 Y96.297 E.0148
G1 X123.774 Y95.827 E.01481
G1 X123.901 Y95.371 E.01484
G1 X124.103 Y94.944 E.01481
G1 X124.375 Y94.557 E.01483
G1 X124.707 Y94.222 E.01479
G1 X125.092 Y93.947 E.01483
G1 X125.518 Y93.742 E.01482
G1 X125.972 Y93.611 E.01482
G1 X126.572 Y93.567 E.01886
G1 X126.913 Y93.587 E.01071
G1 X127.374 Y93.695 E.01485
G1 X127.809 Y93.879 E.01481
G1 X128.207 Y94.133 E.0148
G1 X128.556 Y94.452 E.01483
G1 X128.847 Y94.824 E.01481
G1 X129.057 Y95.215 E.01392
G1 X129.22 Y95.689 E.01572
G1 X129.292 Y96.156 E.01482
G1 X129.284 Y96.629 E.01483
G1 X129.196 Y97.093 E.01481
G1 X129.031 Y97.536 E.01482
G1 X128.814 Y97.909 E.01353
M204 S1000
G1 X128.814 Y97.909 F10800
G1 X128.488 Y97.722
M204 S800
;TYPE:External perimeter
G1 F1200
G1 X128.241 Y98.024 E.01223
G1 X127.932 Y98.292 E.01282
G1 X127.583 Y98.504 E.0128
G1 X127.202 Y98.654 E.01284
G1 X126.802 Y98.737 E.01281
G1 X126.394 Y98.752 E.0128
G1 X125.988 Y98.697 E.01285
G1 X125.598 Y98.575 E.01281
G1 X125.235 Y98.389 E.01279
G1 X124.837 Y98.07 E.01599
G1 X124.627 Y97.846 E.00963
G1 X124.4 Y97.506 E.01282
G1 X124.234 Y97.132 E.01283
G1 X124.134 Y96.736 E.01281
G1 X124.102 Y96.329 E.0128
G1 X124.139 Y95.922 E.01281
G1 X124.245 Y95.527 E.01282
G1 X124.416 Y95.155 E.01284
G1 X124.647 Y94.818 E.01281
G1 X124.932 Y94.525 E.01282
G1 X125.262 Y94.284 E.01281
G1 X125.628 Y94.102 E.01282
G1 X126.02 Y93.985 E.01283
G1 X126.56 Y93.944 E.01698
G1 X126.834 Y93.956 E.0086
G1 X127.233 Y94.045 E.01282
G1 X127.611 Y94.2 E.01281
G1 X127.958 Y94.416 E.01282
G1 X128.263 Y94.689 E.01283
G1 X128.518 Y95.008 E.0128
G1 X128.702 Y95.344 E.01201
G1 X128.848 Y95.753 E.01362
G1 X128.915 Y96.156 E.01281
G1 X128.912 Y96.565 E.01282
G1 X128.84 Y96.967 E.0128
G1 X128.701 Y97.352 E.01283
G1 X128.52 Y97.672 E.01153
M204 S1000
;WIPE_START
G1 F8640
G1 X128.488 Y97.722 E-.01371
G1 X128.241 Y98.024 E-.09009
G1 X127.932 Y98.292 E-.09445
G1 X127.583 Y98.504 E-.09429
G1 X127.202 Y98.654 E-.09455
G1 X126.802 Y98.737 E-.09433
G1 X126.394 Y98.752 E-.09427
G1 X125.988 Y98.697 E-.0946
G1 X125.598 Y98.575 E-.09436
G1 X125.235 Y98.389 E-.09418
G1 X124.837 Y98.07 E-.11778
G1 X124.768 Y97.996 E-.02339
;WIPE_END
G1 Z.4 F720
G1 X222.213 Y97.796 F10800
G1 Z.2 F720
G1 E1 F2100
M204 S800
;TYPE:Perimeter
G1 F1200
G1 X222.058 Y97.473 E.01123
G1 X221.909 Y96.958 E.01681
G1 X221.85 Y96.425 E.01681
G1 X221.882 Y95.889 E.01684
G1 X222.004 Y95.367 E.01681
G1 X222.213 Y94.873 E.01682
G1 X222.502 Y94.421 E.01682
G1 X222.863 Y94.024 E.01682
G1 X223.286 Y93.694 E.01682
G1 X223.759 Y93.441 E.01682
G1 X224.268 Y93.271 E.01683
G1 X224.774 Y93.192 E.01606
G1 X225.325 Y93.198 E.01728
G1 X225.861 Y93.298 E.0171
G1 X226.364 Y93.486 E.01684
G1 X226.828 Y93.755 E.01682
G1 X227.239 Y94.099 E.0168
G1 X227.587 Y94.508 E.01684
G1 X227.86 Y94.97 E.01683
G1 X228.051 Y95.471 E.01681
G1 X228.155 Y95.997 E.01681
G1 X228.169 Y96.533 E.01681
G1 X228.092 Y97.064 E.01682
G1 X227.926 Y97.574 E.01682
G1 X227.676 Y98.049 E.01683
G1 X227.35 Y98.475 E.01682
G1 X226.956 Y98.839 E.01682
G1 X226.507 Y99.132 E.01681
G1 X226.014 Y99.344 E.01683
G1 X225.493 Y99.47 E.01681
G1 X224.958 Y99.507 E.01681
G1 X224.424 Y99.452 E.01683
G1 X223.907 Y99.308 E.01683
G1 X223.422 Y99.079 E.01682
G1 X222.983 Y98.771 E.01681
G1 X222.602 Y98.393 E.01683
G1 X222.291 Y97.956 E.01682
G1 X222.239 Y97.85 E.0037
M204 S1000
G1 X222.239 Y97.85 F10800
G1 X222.549 Y97.644
M204 S800
G1 F1200
G1 X222.369 Y97.227 E.01424
G1 X222.258 Y96.768 E.01481
G1 X222.226 Y96.297 E.0148
G1 X222.274 Y95.827 E.01481
G1 X222.401 Y95.371 E.01484
G1 X222.556 Y95.028 E.0118
G1 X222.875 Y94.557 E.01784
G1 X223.207 Y94.222 E.01479
G1 X223.592 Y93.947 E.01483
G1 X224.018 Y93.742 E.01482
G1 X224.472 Y93.611 E.01482
G1 X224.912 Y93.562 E.01388
G1 X225.413 Y93.587 E.01573
G1 X225.874 Y93.695 E.01485
G1 X226.309 Y93.879 E.01481
G1 X226.707 Y94.133 E.0148
G1 X227.056 Y94.452 E.01483
G1 X227.347 Y94.824 E.01481
G1 X227.57 Y95.241 E.01483
G1 X227.72 Y95.689 E.01481
G1 X227.792 Y96.156 E.01482
G1 X227.784 Y96.629 E.01483
G1 X227.696 Y97.093 E.01481
G1 X227.531 Y97.536 E.01482
G1 X227.293 Y97.944 E.01481
G1 X226.99 Y98.307 E.01483
G1 X226.63 Y98.613 E.01481
G1 X226.223 Y98.854 E.01483
G1 X225.782 Y99.022 E.0148
G1 X225.318 Y99.114 E.01483
G1 X224.846 Y99.126 E.0148
G1 X224.378 Y99.058 E.01483
