; generated by PrusaSlicer 2.8.0+win64 on 2025-12-04 at 09:52:34 UTC


;
;
; 

; external perimeters extrusion width = 0.60mm
; perimeters extrusion width = 0.50mm
; infill extrusion width = 0.50mm
; solid infill extrusion width = 0.50mm
; top infill extrusion width = 0.45mm
; support material extrusion width = 0.38mm
; first layer extrusion width = 0.42mm

M73 P0 R139
M73 Q0 S141
M201 X1000 Y1000 Z200 E5000 ; sets maximum accelerations, mm/sec^2
M203 X200 Y200 Z12 E120 ; sets maximum feedrates, mm / sec
M204 S1250 T1250 ; sets acceleration (S) and retract acceleration (R), mm/sec^2
M205 X8.00 Y8.00 Z0.40 E4.50 ; sets the jerk limits, mm/sec
M205 S0 T0 ; sets the minimum extruding and travel feed rate, mm/sec

; printing object drain_controller_top.stl id:0 copy 0
; stop printing object drain_controller_top.stl id:0 copy 0

;TYPE:Custom
M862.3 P "MK3S" ; printer model check
M862.1 P0.4 ; nozzle diameter check
M115 U3.13.3 ; tell printer latest fw version
G90 ; use absolute coordinates
M83 ; extruder relative mode
M104 S230 ; set extruder temp
M140 S85 ; set bed temp
M190 S85 ; wait for bed temp
M109 S230 ; wait for extruder temp
G28 W ; home all without mesh bed level
G80 X123.36 Y5.63129 W108.5 H86.0235 ; mesh bed levelling

G1 Z0.2 F720
G1 Y-3 F1000 ; go outside print area
G92 E0
G1 X60 E9 F1000 ; intro line
G1 X100 E12.5 F1000 ; intro line

G92 E0
M221 S95

; Don't change E values below. Excessive value can damage the printer.

M907 E538 ; set extruder motor current
G21 ; set units to millimeters
G90 ; use absolute coordinates
M83 ; use relative distances for extrusion

M900 K0.08 ; Filament gcode LA 1.5
M900 K45 ; Filament gcode LA 1.0




M107
;LAYER_CHANGE
;Z:0.2
;HEIGHT:0.2
G1 E-1 F2100
G1 Z.4 F720
; printing object drain_controller_top.stl id:0 copy 0
G1 X177.55 Y5.82 F10800
G1 Z.2 F720
G1 E1 F2100
M204 S800
;TYPE:Support material
;WIDTH:0.42
G1 F1200
G1 X178.107 Y5.845 E.01748
G1 X179.202 Y6.069 E.03504
G1 X180.271 Y6.501 E.03615
G1 X181.244 Y7.121 E.03617
G1 X182.089 Y7.907 E.03618
G1 X182.776 Y8.833 E.03615
G1 X183.285 Y9.868 E.03616
G1 X183.597 Y10.979 E.03618
G1 X183.702 Y12.127 E.03614
G1 X183.597 Y13.276 E.03618
G1 X183.285 Y14.386 E.03615
G1 X182.776 Y15.422 E.03619
G1 X182.1 Y16.333 E.03557
G1 X181.294 Y17.085 E.03456
G1 X173.474 Y17.085 E.24519
G1 X172.826 Y16.527 E.02681
G1 X172.103 Y15.629 E.03615
G1 X171.587 Y14.671 E.03412
G1 X171.383 Y14.128 E.01819
G1 X171.214 Y13.535 E.01933
G1 X171.062 Y12.394 E.03609
G1 X171.119 Y11.246 E.03604
G1 X171.383 Y10.126 E.03608
G1 X171.587 Y9.583 E.01819
G1 X172.103 Y8.626 E.03409
G1 X172.826 Y7.728 E.03615
G1 X173.7 Y6.975 E.03617
G1 X174.696 Y6.394 E.03615
G1 X175.781 Y6.003 E.03616
G1 X176.892 Y5.82 E.0353
G1 X177.493 Y5.82 E.01884
M204 S1000
G1 X183.056 Y14.467 F10800
M204 S800
G1 F1200
G1 X183.056 Y10.31 E.13034
G1 X182.637 Y9.319 E.03374
G1 X182.637 Y14.935 E.17609
G1 X182.218 Y15.604 E.02475
G1 X182.218 Y8.65 E.21804
G1 X181.799 Y8.101 E.02165
G1 X181.799 Y16.151 E.2524
G1 X181.38 Y16.547 E.01808
G1 X181.38 Y7.711 E.27705
G1 X180.961 Y7.343 E.01749
G1 X180.961 Y16.745 E.29479
G1 X180.542 Y16.745 E.01314
G1 X180.542 Y7.076 E.30316
G1 X180.123 Y6.81 E.01556
G1 X180.123 Y16.745 E.3115
G1 X179.704 Y16.745 E.01314
G1 X179.704 Y6.638 E.3169
G1 X179.286 Y6.469 E.01414
G1 X179.286 Y16.745 E.3222
G1 X178.867 Y16.745 E.01314
G1 X178.867 Y6.347 E.32602
G1 X178.448 Y6.261 E.01341
G1 X178.448 Y16.745 E.32872
G1 X178.029 Y16.745 E.01314
G1 X178.029 Y6.181 E.33123
G1 X177.61 Y6.162 E.01315
G1 X177.61 Y16.745 E.33182
G1 X177.191 Y16.745 E.01314
G1 X177.191 Y6.159 E.33192
G1 X176.92 Y6.159 E.0085
G1 X176.772 Y6.184 E.00471
G1 X176.772 Y16.745 E.33113
G1 X176.353 Y16.745 E.01314
G1 X176.353 Y6.253 E.32897
G1 X175.934 Y6.322 E.01331
G1 X175.934 Y16.745 E.32681
G1 X175.515 Y16.745 E.01314
G1 X175.515 Y6.46 E.32248
G1 X175.096 Y6.611 E.01396
G1 X175.096 Y16.745 E.31774
G1 X174.677 Y16.745 E.01314
G1 X174.677 Y6.798 E.31188
G1 X174.258 Y7.042 E.0152
G1 X174.258 Y16.745 E.30423
G1 X173.839 Y16.745 E.01314
G1 X173.839 Y7.303 E.29605
G1 X173.42 Y7.664 E.01734
G1 X173.42 Y16.59 E.27987
G1 X173.001 Y16.203 E.01788
G1 X173.001 Y8.052 E.25557
G1 X172.582 Y8.573 E.02096
G1 X172.582 Y15.682 E.2229
G1 X172.163 Y15.024 E.02446
G1 X172.163 Y9.23 E.18167
G1 X171.744 Y10.13 E.03113
G1 X171.744 Y14.605 E.14031
M204 S1000
;WIPE_START
G1 F8640
G1 X171.744 Y10.274 E-1
;WIPE_END
G1 Z.4 F720
G1 X229.941 Y19.573 F10800
G1 Z.2 F720
G1 E1 F2100
M204 S800
;TYPE:Perimeter
;WIDTH:0.419999
G1 F1200
G1 X229.941 Y54.655 E1.09997
G1 X229.941 Y89.737 E1.09997
G1 X125.278 Y89.737 E3.28163
G1 X125.278 Y19.573 E2.19994
G1 X229.881 Y19.573 E3.27975
M73 Q0 S140
M204 S1000
G1 X229.881 Y19.573 F10800
G1 X230.318 Y19.196
M204 S800
G1 F1200
G1 X230.318 Y54.655 E1.11179
G1 X230.318 Y90.114 E1.11179
G1 X124.901 Y90.114 E3.30527
G1 X124.901 Y19.196 E2.22358
M73 P0 R138
G1 X230.258 Y19.196 E3.30339
M204 S1000
G1 X230.258 Y19.196 F10800
G1 X230.695 Y18.819
M204 S800
G1 F1200
G1 X230.695 Y54.655 E1.12361
G1 X230.695 Y90.491 E1.12361
G1 X124.524 Y90.491 E3.32891
G1 X124.524 Y18.819 E2.24722
G1 X230.635 Y18.819 E3.32703
M204 S1000
G1 X230.635 Y18.819 F10800
G1 X231.073 Y18.442
M204 S800
G1 F1200
G1 X231.073 Y54.655 E1.13543
G1 X231.073 Y90.868 E1.13543
G1 X124.147 Y90.868 E3.35258
G1 X124.147 Y18.442 E2.27086
M73 P1 R138
M73 Q1 S140
G1 X231.013 Y18.442 E3.3507
M204 S1000
G1 X231.013 Y18.442 F10800
M73 Q1 S139
G1 X231.45 Y18.065
M204 S800
;TYPE:External perimeter
G1 F1200
G1 X231.45 Y54.655 E1.14725
G1 X231.45 Y91.245 E1.14725
G1 X123.77 Y91.245 E3.37623
G1 X123.77 Y18.065 E2.2945
G1 X231.39 Y18.065 E3.37434
M204 S1000
;WIPE_START
G1 F8640
M73 P1 R137
G1 X231.45 Y18.065 E-.01385
G1 X231.45 Y22.336 E-.98615
;WIPE_END
G1 Z.4 F720
G1 X229.772 Y20.507 F10800
G1 Z.2 F720
G1 E1 F2100
M204 S800
;TYPE:Solid infill
;WIDTH:0.420817
G1 F1200
G1 X229.177 Y19.913 E.02642
G1 X228.643 Y19.913 E.01678
G1 X229.602 Y20.872 E.04262
G1 X229.602 Y21.406 E.01678
G1 X228.108 Y19.913 E.06637
G1 X227.574 Y19.913 E.01678
G1 X229.602 Y21.94 E.0901
G1 X229.602 Y22.475 E.01681
G1 X227.04 Y19.913 E.11385
G1 X226.505 Y19.913 E.01681
G1 X229.602 Y23.009 E.1376
G1 X229.602 Y23.544 E.01681
G1 X225.971 Y19.913 E.16135
G1 X225.436 Y19.913 E.01681
G1 X229.602 Y24.078 E.18511
G1 X229.602 Y24.613 E.01681
G1 X224.902 Y19.913 E.20886
G1 X224.367 Y19.913 E.01681
G1 X229.602 Y25.147 E.23261
G1 X229.602 Y25.681 E.01678
G1 X223.833 Y19.913 E.25634
G1 X223.299 Y19.913 E.01678
G1 X229.602 Y26.216 E.28009
G1 X229.602 Y26.75 E.01678
G1 X222.764 Y19.913 E.30384
G1 X222.23 Y19.913 E.01678
G1 X229.602 Y27.285 E.3276
G1 X229.602 Y27.819 E.01678
G1 X221.695 Y19.913 E.35135
G1 X221.161 Y19.913 E.01678
G1 X229.602 Y28.354 E.3751
G1 X229.602 Y28.888 E.01678
G1 X220.626 Y19.913 E.39885
G1 X220.092 Y19.913 E.01678
G1 X229.602 Y29.422 E.42258
G1 X229.602 Y29.957 E.01681
G1 X219.558 Y19.913 E.44633
G1 X219.023 Y19.913 E.01681
G1 X229.602 Y30.491 E.47009
G1 X229.602 Y31.026 E.01681
G1 X218.489 Y19.913 E.49384
G1 X217.954 Y19.913 E.01681
G1 X229.602 Y31.56 E.51759
G1 X229.602 Y32.095 E.01681
G1 X217.42 Y19.913 E.54134
G1 X216.885 Y19.913 E.01681
G1 X229.602 Y32.629 E.56509
G1 X229.602 Y33.163 E.01678
G1 X216.351 Y19.913 E.58882
G1 X215.817 Y19.913 E.01678
G1 X229.602 Y33.698 E.61257
G1 X229.602 Y34.232 E.01678
G1 X215.282 Y19.913 E.63633
G1 X214.748 Y19.913 E.01678
G1 X229.602 Y34.767 E.66008
G1 X229.602 Y35.301 E.01678
G1 X214.213 Y19.913 E.68383
G1 X213.679 Y19.913 E.01678
G1 X229.602 Y35.836 E.70758
G1 X229.602 Y36.37 E.01678
G1 X213.144 Y19.913 E.73133
G1 X212.61 Y19.913 E.01678
G1 X229.602 Y36.904 E.75506
G1 X229.602 Y37.439 E.01681
G1 X212.076 Y19.913 E.77882
G1 X211.541 Y19.913 E.01681
G1 X229.602 Y37.973 E.80257
G1 X229.602 Y38.508 E.01681
G1 X211.007 Y19.913 E.82632
G1 X210.472 Y19.913 E.01681
G1 X229.602 Y39.042 E.85007
G1 X229.602 Y39.577 E.01681
G1 X209.938 Y19.913 E.87382
G1 X209.403 Y19.913 E.01681
G1 X229.602 Y40.111 E.89758
G1 X229.602 Y40.645 E.01678
G1 X208.869 Y19.913 E.92131
G1 X208.335 Y19.913 E.01678
G1 X229.602 Y41.18 E.94506
G1 X229.602 Y41.714 E.01678
G1 X207.8 Y19.913 E.96881
G1 X207.266 Y19.913 E.01678
G1 X229.602 Y42.249 E.99256
G1 X229.602 Y42.783 E.01678
G1 X206.731 Y19.913 E1.01631
G1 X206.197 Y19.913 E.01678
G1 X229.602 Y43.318 E1.04007
G1 X229.602 Y43.852 E.01678
G1 X205.662 Y19.913 E1.06382
G1 X205.128 Y19.913 E.01678
M73 Q1 S138
G1 X229.602 Y44.386 E1.08755
G1 X229.602 Y44.921 E.01681
G1 X204.594 Y19.913 E1.1113
G1 X204.059 Y19.913 E.01681
G1 X229.602 Y45.455 E1.13505
G1 X229.602 Y45.99 E.01681
G1 X203.525 Y19.913 E1.1588
G1 X202.99 Y19.913 E.01681
G1 X229.602 Y46.524 E1.18256
G1 X229.602 Y47.059 E.01681
G1 X202.456 Y19.913 E1.20631
G1 X201.921 Y19.913 E.01681
G1 X229.602 Y47.593 E1.23006
G1 X229.602 Y48.127 E.01678
G1 X201.387 Y19.913 E1.25379
G1 X200.853 Y19.913 E.01678
M73 P2 R136
G1 X229.602 Y48.662 E1.27754
G1 X229.602 Y49.196 E.01678
M73 Q2 S138
G1 X200.318 Y19.913 E1.30129
G1 X199.784 Y19.913 E.01678
G1 X229.602 Y49.731 E1.32505
G1 X229.602 Y50.265 E.01678
G1 X199.249 Y19.913 E1.3488
G1 X198.715 Y19.913 E.01678
G1 X229.602 Y50.8 E1.37255
G1 X229.602 Y51.334 E.01678
G1 X198.181 Y19.913 E1.39628
G1 X197.646 Y19.913 E.01681
G1 X229.602 Y51.868 E1.42003
G1 X229.602 Y52.403 E.01681
G1 X197.112 Y19.913 E1.44378
G1 X196.577 Y19.913 E.01681
G1 X229.602 Y52.937 E1.46754
G1 X229.602 Y53.472 E.01681
G1 X196.043 Y19.913 E1.49129
G1 X195.508 Y19.913 E.01681
G1 X229.602 Y54.006 E1.51504
G1 X229.602 Y54.54 E.01678
G1 X194.974 Y19.913 E1.53877
G1 X194.44 Y19.913 E.01678
G1 X229.602 Y55.075 E1.56252
G1 X229.602 Y55.609 E.01678
G1 X193.905 Y19.913 E1.58627
G1 X193.371 Y19.913 E.01678
G1 X229.602 Y56.144 E1.61003
G1 X229.602 Y56.678 E.01678
G1 X192.836 Y19.913 E1.63378
G1 X192.302 Y19.913 E.01678
G1 X229.602 Y57.213 E1.65753
G1 X229.602 Y57.747 E.01678
G1 X191.767 Y19.913 E1.68128
G1 X191.233 Y19.913 E.01678
G1 X229.602 Y58.281 E1.70501
G1 X229.602 Y58.816 E.01681
M73 Q2 S137
G1 X190.699 Y19.913 E1.72876
G1 X190.164 Y19.913 E.01681
G1 X229.602 Y59.35 E1.75252
G1 X229.602 Y59.885 E.01681
G1 X189.63 Y19.913 E1.77627
G1 X189.095 Y19.913 E.01681
G1 X229.602 Y60.419 E1.80002
G1 X229.602 Y60.954 E.01681
G1 X188.561 Y19.913 E1.82377
G1 X188.026 Y19.913 E.01681
M73 P2 R135
G1 X229.602 Y61.488 E1.84752
G1 X229.602 Y62.022 E.01678
G1 X187.492 Y19.913 E1.87125
G1 X186.958 Y19.913 E.01678
G1 X229.602 Y62.557 E1.89501
G1 X229.602 Y63.091 E.01678
G1 X186.423 Y19.913 E1.91876
G1 X185.889 Y19.913 E.01678
G1 X229.602 Y63.626 E1.94251
G1 X229.602 Y64.16 E.01678
G1 X185.354 Y19.913 E1.96626
G1 X184.82 Y19.913 E.01678
G1 X229.602 Y64.695 E1.99001
G1 X229.602 Y65.229 E.01678
G1 X184.285 Y19.913 E2.01377
G1 X183.751 Y19.913 E.01678
M73 P3 R135
G1 X229.602 Y65.763 E2.0375
G1 X229.602 Y66.298 E.01681
M73 Q3 S137
G1 X183.217 Y19.913 E2.06125
G1 X182.682 Y19.913 E.01681
G1 X229.602 Y66.832 E2.085
G1 X229.602 Y67.367 E.01681
G1 X182.148 Y19.913 E2.10875
G1 X181.613 Y19.913 E.01681
G1 X229.602 Y67.901 E2.1325
G1 X229.602 Y68.436 E.01681
G1 X181.079 Y19.913 E2.15626
G1 X180.544 Y19.913 E.01681
M73 Q3 S136
G1 X229.602 Y68.97 E2.18001
G1 X229.602 Y69.504 E.01678
G1 X180.01 Y19.913 E2.20374
G1 X179.476 Y19.913 E.01678
G1 X229.602 Y70.039 E2.22749
G1 X229.602 Y70.573 E.01678
G1 X178.941 Y19.913 E2.25124
G1 X178.407 Y19.913 E.01678
G1 X229.602 Y71.108 E2.27499
G1 X229.602 Y71.642 E.01678
M73 P3 R134
G1 X177.872 Y19.913 E2.29874
G1 X177.338 Y19.913 E.01678
G1 X229.602 Y72.177 E2.3225
G1 X229.602 Y72.711 E.01678
G1 X176.803 Y19.913 E2.34625
G1 X176.269 Y19.913 E.01678
G1 X229.602 Y73.245 E2.36998
G1 X229.602 Y73.78 E.01681
G1 X175.735 Y19.913 E2.39373
G1 X175.2 Y19.913 E.01681
G1 X229.602 Y74.314 E2.41748
G1 X229.602 Y74.849 E.01681
G1 X174.666 Y19.913 E2.44123
G1 X174.131 Y19.913 E.01681
G1 X229.602 Y75.383 E2.46499
G1 X229.602 Y75.918 E.01681
G1 X173.597 Y19.913 E2.48874
G1 X173.062 Y19.913 E.01681
G1 X229.602 Y76.452 E2.51249
G1 X229.602 Y76.986 E.01678
G1 X172.528 Y19.913 E2.53622
G1 X171.994 Y19.913 E.01678
M73 Q3 S135
G1 X229.602 Y77.521 E2.55997
G1 X229.602 Y78.055 E.01678
M73 P4 R134
G1 X171.459 Y19.913 E2.58372
G1 X170.925 Y19.913 E.01678
M73 Q4 S135
G1 X229.602 Y78.59 E2.60748
G1 X229.602 Y79.124 E.01678
G1 X170.39 Y19.913 E2.63123
G1 X169.856 Y19.913 E.01678
M73 P4 R133
G1 X229.602 Y79.659 E2.65498
G1 X229.602 Y80.193 E.01678
G1 X169.321 Y19.913 E2.67873
G1 X168.787 Y19.913 E.01678
G1 X229.602 Y80.727 E2.70246
G1 X229.602 Y81.262 E.01681
G1 X168.253 Y19.913 E2.72621
G1 X167.718 Y19.913 E.01681
G1 X229.602 Y81.796 E2.74997
G1 X229.602 Y82.331 E.01681
G1 X167.184 Y19.913 E2.77372
G1 X166.649 Y19.913 E.01681
G1 X229.602 Y82.865 E2.79747
G1 X229.602 Y83.4 E.01681
G1 X166.115 Y19.913 E2.82122
G1 X165.58 Y19.913 E.01681
G1 X229.602 Y83.934 E2.84497
G1 X229.602 Y84.468 E.01678
G1 X165.046 Y19.913 E2.8687
G1 X164.512 Y19.913 E.01678
M73 Q4 S134
G1 X229.602 Y85.003 E2.89246
G1 X229.602 Y85.537 E.01678
G1 X163.977 Y19.913 E2.91621
G1 X163.443 Y19.913 E.01678
G1 X229.602 Y86.072 E2.93996
G1 X229.602 Y86.606 E.01678
M73 P4 R132
G1 X162.908 Y19.913 E2.96371
G1 X162.374 Y19.913 E.01678
G1 X229.602 Y87.141 E2.98746
G1 X229.602 Y87.675 E.01678
M73 P5 R132
G1 X161.839 Y19.913 E3.01122
G1 X161.305 Y19.913 E.01678
M73 Q5 S134
G1 X229.602 Y88.209 E3.03495
G1 X229.602 Y88.744 E.01681
G1 X160.771 Y19.913 E3.0587
G1 X160.236 Y19.913 E.01681
G1 X229.602 Y89.278 E3.08245
G1 X229.602 Y89.397 E.00374
G1 X229.186 Y89.397 E.01307
G1 X159.702 Y19.913 E3.08772
G1 X159.167 Y19.913 E.01681
G1 X228.652 Y89.397 E3.08774
G1 X228.118 Y89.397 E.01678
G1 X158.633 Y19.913 E3.08774
G1 X158.098 Y19.913 E.01681
M73 Q5 S133
G1 X227.583 Y89.397 E3.08774
G1 X227.049 Y89.397 E.01678
G1 X157.564 Y19.913 E3.08774
G1 X157.03 Y19.913 E.01678
G1 X226.514 Y89.397 E3.08772
G1 X225.98 Y89.397 E.01678
G1 X156.495 Y19.913 E3.08774
M73 P5 R131
G1 X155.961 Y19.913 E.01678
G1 X225.445 Y89.397 E3.08772
G1 X224.911 Y89.397 E.01678
G1 X155.426 Y19.913 E3.08774
G1 X154.892 Y19.913 E.01678
G1 X224.377 Y89.397 E3.08774
G1 X223.842 Y89.397 E.01681
G1 X154.357 Y19.913 E3.08774
G1 X153.823 Y19.913 E.01678
G1 X223.308 Y89.397 E3.08774
G1 X222.773 Y89.397 E.01681
G1 X153.289 Y19.913 E3.08772
G1 X152.754 Y19.913 E.01681
M73 P6 R131
G1 X222.239 Y89.397 E3.08774
G1 X221.704 Y89.397 E.01681
G1 X152.22 Y19.913 E3.08772
G1 X151.685 Y19.913 E.01681
M73 Q6 S132
G1 X221.17 Y89.397 E3.08774
G1 X220.636 Y89.397 E.01678
G1 X151.151 Y19.913 E3.08774
G1 X150.616 Y19.913 E.01681
G1 X220.101 Y89.397 E3.08774
G1 X219.567 Y89.397 E.01678
G1 X150.082 Y19.913 E3.08774
G1 X149.548 Y19.913 E.01678
M73 P6 R130
G1 X219.032 Y89.397 E3.08772
G1 X218.498 Y89.397 E.01678
G1 X149.013 Y19.913 E3.08774
G1 X148.479 Y19.913 E.01678
G1 X217.963 Y89.397 E3.08772
G1 X217.429 Y89.397 E.01678
G1 X147.944 Y19.913 E3.08774
G1 X147.41 Y19.913 E.01678
G1 X216.895 Y89.397 E3.08774
G1 X216.36 Y89.397 E.01681
G1 X146.876 Y19.913 E3.08772
G1 X146.341 Y19.913 E.01681
G1 X215.826 Y89.397 E3.08774
G1 X215.291 Y89.397 E.01681
G1 X145.807 Y19.913 E3.08772
G1 X145.272 Y19.913 E.01681
M73 Q6 S131
G1 X214.757 Y89.397 E3.08774
G1 X214.222 Y89.397 E.01681
G1 X144.738 Y19.913 E3.08772
G1 X144.203 Y19.913 E.01681
G1 X213.688 Y89.397 E3.08774
G1 X213.154 Y89.397 E.01678
M73 P7 R130
G1 X143.669 Y19.913 E3.08774
G1 X143.135 Y19.913 E.01678
M73 P7 R129
G1 X212.619 Y89.397 E3.08772
G1 X212.085 Y89.397 E.01678
M73 Q7 S131
G1 X142.6 Y19.913 E3.08774
G1 X142.066 Y19.913 E.01678
G1 X211.55 Y89.397 E3.08772
G1 X211.016 Y89.397 E.01678
G1 X141.531 Y19.913 E3.08774
G1 X140.997 Y19.913 E.01678
G1 X210.481 Y89.397 E3.08772
G1 X209.947 Y89.397 E.01678
G1 X140.462 Y19.913 E3.08774
G1 X139.928 Y19.913 E.01678
G1 X209.413 Y89.397 E3.08774
G1 X208.878 Y89.397 E.01681
G1 X139.394 Y19.913 E3.08772
G1 X138.859 Y19.913 E.01681
G1 X208.344 Y89.397 E3.08774
G1 X207.809 Y89.397 E.01681
M73 Q7 S130
G1 X138.325 Y19.913 E3.08772
G1 X137.79 Y19.913 E.01681
G1 X207.275 Y89.397 E3.08774
G1 X206.74 Y89.397 E.01681
G1 X137.256 Y19.913 E3.08772
G1 X136.721 Y19.913 E.01681
M73 P7 R128
G1 X206.206 Y89.397 E3.08774
