; generated by PrusaSlicer 2.8.0+win64 on 2025-12-04 at 08:17:37 UTC


;
;
; 

; external perimeters extrusion width = 0.60mm
; perimeters extrusion width = 0.50mm
; infill extrusion width = 0.50mm
; solid infill extrusion width = 0.50mm
; top infill extrusion width = 0.45mm
; first layer extrusion width = 0.42mm

M73 P0 R23
M73 Q0 S23
M201 X1000 Y1000 Z200 E5000 ; sets maximum accelerations, mm/sec^2
M203 X200 Y200 Z12 E120 ; sets maximum feedrates, mm / sec
M204 S1250 T1250 ; sets acceleration (S) and retract acceleration (R), mm/sec^2
M205 X8.00 Y8.00 Z0.40 E4.50 ; sets the jerk limits, mm/sec
M205 S0 T0 ; sets the minimum extruding and travel feed rate, mm/sec

; printing object hole_template.stl id:0 copy 0
; stop printing object hole_template.stl id:0 copy 0

;TYPE:Custom
M862.3 P "MK3S" ; printer model check
M862.1 P0.4 ; nozzle diameter check
M115 U3.13.3 ; tell printer latest fw version
G90 ; use absolute coordinates
M83 ; extruder relative mode
M104 S230 ; set extruder temp
M140 S85 ; set bed temp
M190 S85 ; wait for bed temp
M109 S230 ; wait for extruder temp
G28 W ; home all without mesh bed level
G80 X123.14 Y12.5386 W120 H38 ; mesh bed levelling

G1 Z0.2 F720
G1 Y-3 F1000 ; go outside print area
G92 E0
G1 X60 E9 F1000 ; intro line
G1 X100 E12.5 F1000 ; intro line

G92 E0
M221 S95

; Don't change E values below. Excessive value can damage the printer.

M907 E538 ; set extruder motor current
G21 ; set units to millimeters
G90 ; use absolute coordinates
M83 ; use relative distances for extrusion

M900 K0.08 ; Filament gcode LA 1.5
M900 K45 ; Filament gcode LA 1.0




M107
;LAYER_CHANGE
;Z:0.2
;HEIGHT:0.2
G1 E-1 F2100
G1 Z.4 F720
; printing object hole_template.stl id:0 copy 0
G1 X210.454 Y19.222 F10800
G1 Z.2 F720
G1 E1 F2100
M204 S800
;TYPE:Perimeter
;WIDTH:0.419999
G1 F1200
G1 X210.137 Y19.588 E.01518
G1 X209.778 Y19.887 E.01465
G1 X209.257 Y20.17 E.01859
G1 X208.902 Y20.298 E.01183
G1 X208.424 Y20.387 E.01524
G1 X207.939 Y20.394 E.01521
G1 X207.435 Y20.312 E.01601
G1 X206.999 Y20.164 E.01444
G1 X206.572 Y19.933 E.01522
G1 X206.19 Y19.634 E.01521
G1 X205.864 Y19.274 E.01523
G1 X205.642 Y18.941 E.01255
G1 X205.415 Y18.417 E.01791
G1 X205.306 Y17.943 E.01525
G1 X205.279 Y17.459 E.0152
G1 X205.357 Y16.9 E.0177
G1 X205.573 Y16.287 E.02038
G1 X205.864 Y15.803 E.01771
G1 X206.31 Y15.338 E.0202
G1 X206.708 Y15.06 E.01522
G1 X207.147 Y14.854 E.0152
G1 X207.695 Y14.718 E.0177
G1 X208.344 Y14.69 E.02037
G1 X208.902 Y14.779 E.01772
G1 X209.5 Y15.019 E.0202
G1 X209.906 Y15.285 E.01522
G1 X210.261 Y15.616 E.01522
G1 X210.556 Y16.002 E.01523
G1 X210.781 Y16.433 E.01524
G1 X210.93 Y16.895 E.01522
G1 X210.998 Y17.376 E.01523
G1 X210.985 Y17.861 E.01521
G1 X210.889 Y18.337 E.01523
G1 X210.715 Y18.79 E.01522
G1 X210.487 Y19.172 E.01395
M204 S1000
G1 X210.487 Y19.172 F10800
G1 X210.148 Y18.974
M204 S800
G1 F1200
G1 X210.06 Y19.11 E.00508
G1 X209.657 Y19.509 E.01778
G1 X209.217 Y19.78 E.0162
G1 X208.822 Y19.93 E.01325
G1 X208.408 Y20.01 E.01322
G1 X207.987 Y20.02 E.0132
G1 X207.545 Y19.951 E.01403
G1 X207.169 Y19.827 E.01241
G1 X206.796 Y19.63 E.01323
G1 X206.462 Y19.373 E.01321
G1 X206.176 Y19.063 E.01322
G1 X205.97 Y18.755 E.01162
G1 X205.78 Y18.322 E.01483
G1 X205.682 Y17.911 E.01325
G1 X205.654 Y17.491 E.0132
G1 X205.712 Y17.025 E.01472
G1 X205.929 Y16.413 E.02036
G1 X206.236 Y15.94 E.01768
G1 X206.534 Y15.641 E.01324
G1 X206.878 Y15.397 E.01322
G1 X207.258 Y15.214 E.01322
G1 X207.711 Y15.094 E.01469
G1 X208.36 Y15.067 E.02037
G1 X208.914 Y15.176 E.0177
G1 X209.302 Y15.341 E.01322
G1 X209.657 Y15.569 E.01323
G1 X209.968 Y15.853 E.01321
G1 X210.227 Y16.186 E.01323
G1 X210.425 Y16.558 E.01321
G1 X210.558 Y16.959 E.01325
G1 X210.621 Y17.376 E.01322
G1 X210.613 Y17.797 E.0132
G1 X210.534 Y18.211 E.01321
G1 X210.386 Y18.606 E.01323
G1 X210.181 Y18.924 E.01186
M204 S1000
G1 X210.181 Y18.924 F10800
G1 X209.854 Y18.737
M204 S800
;TYPE:External perimeter
G1 F1200
G1 X209.767 Y18.873 E.00506
G1 X209.408 Y19.226 E.01579
G1 X208.976 Y19.47 E.01556
G1 X208.424 Y19.63 E.01802
G1 X208.035 Y19.646 E.01221
G1 X207.655 Y19.59 E.01204
G1 X207.339 Y19.491 E.01038
G1 X207.02 Y19.327 E.01125
G1 X206.734 Y19.112 E.01122
G1 X206.488 Y18.852 E.01122
G1 X206.298 Y18.569 E.01069
G1 X206.145 Y18.227 E.01175
G1 X206.058 Y17.879 E.01125
G1 X206.03 Y17.523 E.0112
G1 X206.068 Y17.151 E.01172
G1 X206.284 Y16.539 E.02035
G1 X206.508 Y16.201 E.01271
G1 X206.758 Y15.944 E.01124
G1 X207.047 Y15.733 E.01122
G1 X207.368 Y15.575 E.01122
G1 X207.727 Y15.471 E.01172
G1 X208.376 Y15.444 E.02037
G1 X208.773 Y15.526 E.01271
G1 X209.104 Y15.662 E.01122
G1 X209.408 Y15.852 E.01124
G1 X209.675 Y16.09 E.01121
G1 X209.897 Y16.37 E.0112
G1 X210.07 Y16.684 E.01124
G1 X210.186 Y17.022 E.0112
G1 X210.244 Y17.376 E.01125
G1 X210.241 Y17.734 E.01123
G1 X210.178 Y18.086 E.01121
G1 X210.056 Y18.422 E.01121
G1 X209.887 Y18.687 E.00985
M204 S1000
;WIPE_START
G1 F8640
G1 X209.854 Y18.737 E-.01383
G1 X209.767 Y18.873 E-.03728
G1 X209.408 Y19.226 E-.11625
G1 X208.976 Y19.47 E-.11456
G1 X208.424 Y19.63 E-.1327
G1 X208.035 Y19.646 E-.0899
G1 X207.655 Y19.59 E-.08869
G1 X207.339 Y19.491 E-.07646
G1 X207.02 Y19.327 E-.08282
G1 X206.734 Y19.112 E-.08262
G1 X206.488 Y18.852 E-.08265
G1 X206.298 Y18.569 E-.07871
G1 X206.292 Y18.555 E-.00353
;WIPE_END
G1 Z.4 F720
G1 X213.73 Y31.491 F10800
G1 Z.2 F720
G1 E1 F2100
M204 S800
;TYPE:Perimeter
G1 F1200
G1 X213.752 Y30.883 E.01908
G1 X213.835 Y30.192 E.02182
G1 X213.975 Y29.511 E.0218
G1 X214.17 Y28.844 E.02179
G1 X214.42 Y28.195 E.02181
G1 X214.673 Y27.67 E.01827
G1 X214.963 Y27.157 E.01848
G1 X215.455 Y26.433 E.02745
G1 X215.911 Y25.884 E.02238
G1 X216.413 Y25.375 E.02242
G1 X216.942 Y24.923 E.02182
G1 X217.45 Y24.556 E.01965
G1 X218.073 Y24.175 E.0229
G1 X218.585 Y23.918 E.01796
G1 X219.371 Y23.594 E.02666
G1 X220.037 Y23.392 E.02182
G1 X220.717 Y23.246 E.02181
G1 X221.407 Y23.157 E.02181
G1 X222.033 Y23.128 E.01965
G1 X222.788 Y23.15 E.02368
G1 X223.487 Y23.233 E.02207
G1 X224.168 Y23.373 E.0218
G1 X224.835 Y23.568 E.02179
G1 X225.484 Y23.818 E.02181
G1 X226.023 Y24.078 E.01876
G1 X226.651 Y24.439 E.02271
G1 X227.271 Y24.871 E.02369
G1 X227.81 Y25.322 E.02204
G1 X228.172 Y25.68 E.01596
G1 X228.669 Y26.238 E.02343
G1 X228.999 Y26.675 E.01717
G1 X229.406 Y27.306 E.02354
G1 X229.734 Y27.928 E.02205
G1 X230.001 Y28.553 E.02131
G1 X230.209 Y29.175 E.02056
G1 X230.365 Y29.795 E.02005
G1 X230.473 Y30.416 E.01976
G1 X230.535 Y31.037 E.01957
G1 X230.554 Y31.578 E.01697
G1 X230.528 Y32.2 E.01952
G1 X230.445 Y32.885 E.02163
G1 X230.306 Y33.566 E.02179
G1 X230.111 Y34.234 E.02182
G1 X229.861 Y34.883 E.02181
G1 X229.558 Y35.509 E.02181
G1 X229.257 Y36.021 E.01862
G1 X228.804 Y36.676 E.02497
G1 X228.459 Y37.088 E.01685
G1 X228.094 Y37.476 E.0167
G1 X227.456 Y38.055 E.02701
G1 X226.775 Y38.561 E.0266
G1 X226.179 Y38.92 E.02182
G1 X225.682 Y39.166 E.01739
G1 X224.909 Y39.484 E.02621
G1 X224.243 Y39.685 E.02181
G1 X223.563 Y39.831 E.02181
G1 X222.874 Y39.92 E.02178
G1 X222.179 Y39.952 E.02181
G1 X221.484 Y39.927 E.02181
G1 X220.794 Y39.844 E.02179
G1 X220.113 Y39.704 E.0218
G1 X219.445 Y39.509 E.02182
G1 X218.796 Y39.259 E.02181
G1 X218.17 Y38.957 E.02179
G1 X217.571 Y38.603 E.02182
G1 X217.059 Y38.242 E.01964
G1 X216.581 Y37.847 E.01944
G1 X215.989 Y37.278 E.02575
G1 X215.525 Y36.737 E.02235
G1 X215.075 Y36.108 E.02425
G1 X214.759 Y35.577 E.01937
G1 X214.529 Y35.114 E.01621
G1 X214.195 Y34.307 E.02738
G1 X214.045 Y33.813 E.01619
G1 X213.848 Y32.962 E.02739
G1 X213.759 Y32.272 E.02181
G1 X213.727 Y31.578 E.02178
G1 X213.728 Y31.551 E.00085
M204 S1000
G1 X213.728 Y31.551 F10800
G1 X214.106 Y31.506
M204 S800
G1 F1200
G1 X214.129 Y30.898 E.01908
G1 X214.209 Y30.239 E.02081
G1 X214.344 Y29.588 E.02085
G1 X214.531 Y28.951 E.02082
G1 X214.771 Y28.332 E.02082
G1 X215.011 Y27.836 E.01728
G1 X215.287 Y27.35 E.01752
G1 X215.761 Y26.652 E.02645
G1 X216.199 Y26.127 E.02144
G1 X216.68 Y25.642 E.02142
G1 X217.185 Y25.211 E.02082
G1 X217.669 Y24.863 E.01869
G1 X218.269 Y24.497 E.02204
G1 X218.751 Y24.256 E.0169
G1 X219.509 Y23.945 E.02569
G1 X220.145 Y23.753 E.02083
G1 X220.794 Y23.615 E.0208
G1 X221.453 Y23.531 E.02083
G1 X222.049 Y23.505 E.0187
G1 X222.776 Y23.527 E.0228
G1 X223.44 Y23.608 E.02097
G1 X224.09 Y23.742 E.02081
G1 X224.728 Y23.93 E.02085
G1 X225.347 Y24.169 E.0208
G1 X225.858 Y24.417 E.01781
G1 X226.458 Y24.763 E.02172
G1 X227.054 Y25.179 E.02279
M73 Q1 S23
G1 X227.566 Y25.61 E.02098
G1 X228.037 Y26.078 E.02082
G1 X228.382 Y26.482 E.01666
G1 X228.692 Y26.894 E.01617
G1 X229.082 Y27.499 E.02257
G1 X229.395 Y28.094 E.02108
G1 X229.649 Y28.69 E.02031
G1 X229.848 Y29.282 E.01958
G1 X229.996 Y29.873 E.0191
G1 X230.099 Y30.463 E.01878
M73 P1 R23
G1 X230.158 Y31.053 E.01859
G1 X230.177 Y31.562 E.01597
G1 X230.151 Y32.182 E.01946
G1 X230.071 Y32.838 E.02072
G1 X229.937 Y33.489 E.02084
G1 X229.749 Y34.126 E.02082
G1 X229.509 Y34.746 E.02085
G1 X229.219 Y35.343 E.02081
G1 X228.933 Y35.828 E.01765
G1 X228.497 Y36.456 E.02397
G1 X228.171 Y36.844 E.01589
G1 X227.827 Y37.209 E.01573
G1 X227.212 Y37.767 E.02604
G1 X226.555 Y38.254 E.02564
G1 X225.986 Y38.596 E.02082
G1 X225.516 Y38.827 E.01642
G1 X224.772 Y39.132 E.02521
G1 X224.136 Y39.324 E.02083
G1 X223.486 Y39.462 E.02083
G1 X222.827 Y39.546 E.02083
G1 X222.164 Y39.575 E.02081
G1 X221.5 Y39.55 E.02083
G1 X220.84 Y39.47 E.02085
G1 X220.19 Y39.335 E.02082
G1 X219.553 Y39.148 E.02082
G1 X218.933 Y38.908 E.02085
G1 X218.336 Y38.618 E.02081
G1 X217.764 Y38.28 E.02083
G1 X217.278 Y37.935 E.01869
G1 X216.823 Y37.558 E.01853
G1 X216.256 Y37.012 E.02468
G1 X215.812 Y36.493 E.02142
G1 X215.399 Y35.915 E.02227
G1 X215.083 Y35.384 E.01937
G1 X214.79 Y34.788 E.02082
G1 X214.546 Y34.17 E.02083
G1 X214.355 Y33.534 E.02082
G1 X214.217 Y32.884 E.02083
G1 X214.133 Y32.226 E.0208
G1 X214.104 Y31.566 E.02071
M204 S1000
G1 X214.104 Y31.566 F10800
G1 X214.481 Y31.522
M204 S800
;TYPE:External perimeter
G1 F1200
G1 X214.506 Y30.914 E.01908
G1 X214.583 Y30.285 E.01987
G1 X214.713 Y29.666 E.01983
G1 X214.893 Y29.059 E.01985
G1 X215.122 Y28.469 E.01984
G1 X215.35 Y28.001 E.01632
G1 X215.611 Y27.543 E.01653
G1 X216.068 Y26.871 E.02548
G1 X216.487 Y26.371 E.02045
G1 X216.946 Y25.908 E.02044
G1 X217.429 Y25.499 E.01984
G1 X217.888 Y25.17 E.01771
G1 X218.464 Y24.82 E.02113
G1 X218.917 Y24.595 E.01586
G1 X219.646 Y24.296 E.02471
G1 X220.252 Y24.115 E.01983
G1 X220.872 Y23.984 E.01987
G1 X221.5 Y23.905 E.01985
G1 X222.064 Y23.881 E.0177
G1 X222.763 Y23.904 E.02193
G1 X223.393 Y23.982 E.0199
G1 X224.013 Y24.111 E.01986
G1 X224.62 Y24.291 E.01985
G1 X225.21 Y24.521 E.01985
G1 X225.692 Y24.756 E.01681
G1 X226.265 Y25.087 E.02075
G1 X226.838 Y25.488 E.02193
G1 X227.322 Y25.898 E.01989
G1 X227.771 Y26.345 E.01987
G1 X228.18 Y26.828 E.01984
G1 X228.549 Y27.342 E.01984
G1 X228.873 Y27.886 E.01985
G1 X229.152 Y28.454 E.01984
G1 X229.383 Y29.044 E.01987
G1 X229.564 Y29.651 E.01986
G1 X229.694 Y30.27 E.01983
G1 X229.772 Y30.886 E.01947
G1 X229.797 Y31.448 E.01764
G1 X229.781 Y32.009 E.0176
G1 X229.725 Y32.568 E.01761
G1 X229.627 Y33.127 E.01779
G1 X229.486 Y33.687 E.01811
G1 X229.298 Y34.25 E.01861
G1 X229.057 Y34.818 E.01935
G1 X228.752 Y35.395 E.02046
G1 X228.385 Y35.964 E.02123
G1 X227.883 Y36.6 E.0254
G1 X227.334 Y37.169 E.02479
G1 X226.851 Y37.579 E.01986
G1 X226.336 Y37.947 E.01985
G1 X225.793 Y38.272 E.01984
G1 X225.224 Y38.55 E.01986
G1 X224.635 Y38.781 E.01984
G1 X224.028 Y38.962 E.01986
G1 X223.409 Y39.093 E.01984
G1 X222.781 Y39.172 E.01985
G1 X222.148 Y39.199 E.01987
G1 X221.515 Y39.173 E.01986
G1 X220.887 Y39.095 E.01984
G1 X220.267 Y38.966 E.01986
G1 X219.66 Y38.786 E.01985
G1 X219.07 Y38.557 E.01984
G1 X218.501 Y38.279 E.01986
G1 X217.957 Y37.956 E.01984
G1 X217.497 Y37.628 E.01771
G1 X217.064 Y37.268 E.01766
G1 X216.522 Y36.745 E.02362
G1 X216.1 Y36.25 E.02039
G1 X215.723 Y35.722 E.02034
G1 X215.407 Y35.191 E.01937
G1 X215.128 Y34.623 E.01984
G1 X214.898 Y34.033 E.01985
G1 X214.716 Y33.427 E.01984
G1 X214.586 Y32.807 E.01986
G1 X214.507 Y32.179 E.01985
G1 X214.482 Y31.582 E.01873
M204 S1000
;WIPE_START
G1 F8640
G1 X214.481 Y31.522 E-.01386
G1 X214.506 Y30.914 E-.14051
G1 X214.583 Y30.285 E-.14632
G1 X214.713 Y29.666 E-.14605
G1 X214.893 Y29.059 E-.14619
G1 X215.122 Y28.469 E-.14613
G1 X215.35 Y28.001 E-.1202
G1 X215.611 Y27.543 E-.12172
G1 X215.657 Y27.475 E-.01902
;WIPE_END
G1 Z.4 F720
G1 X209.92 Y43.299 F10800
G1 Z.2 F720
G1 E1 F2100
M204 S800
;TYPE:Perimeter
G1 F1200
G1 X210.304 Y43.669 E.01672
G1 X210.578 Y44.043 E.01454
G1 X210.781 Y44.433 E.01379
G1 X210.931 Y44.905 E.01553
G1 X210.998 Y45.376 E.01492
G1 X210.985 Y45.861 E.01521
G1 X210.889 Y46.337 E.01523
G1 X210.715 Y46.79 E.01522
G1 X210.466 Y47.207 E.01523
G1 X210.261 Y47.461 E.01023
G1 X209.778 Y47.887 E.02019
G1 X209.357 Y48.13 E.01524
G1 X208.902 Y48.298 E.01521
G1 X208.424 Y48.387 E.01524
G1 X207.939 Y48.394 E.01521
G1 X207.459 Y48.319 E.01523
G1 X206.999 Y48.164 E.01522
G1 X206.572 Y47.933 E.01522
M73 P1 R22
G1 X206.19 Y47.634 E.01521
G1 X205.864 Y47.274 E.01523
G1 X205.603 Y46.864 E.01524
G1 X205.415 Y46.417 E.0152
G1 X205.306 Y45.943 E.01525
G1 X205.279 Y45.459 E.0152
G1 X205.357 Y44.9 E.0177
G1 X205.573 Y44.287 E.02038
G1 X205.864 Y43.803 E.01771
G1 X206.206 Y43.427 E.01594
G1 X206.631 Y43.103 E.01676
G1 X207.082 Y42.876 E.01583
G1 X207.596 Y42.727 E.01678
G1 X208.133 Y42.699 E.01686
G1 X208.583 Y42.71 E.01411
G1 X209.055 Y42.826 E.01524
G1 X209.532 Y43.04 E.01639
G1 X209.872 Y43.263 E.01275
M204 S1000
G1 X209.67 Y43.582 F10800
M204 S800
G1 F1200
G1 X210.087 Y44.001 E.01853
G1 X210.386 Y44.471 E.01747
G1 X210.558 Y44.959 E.01622
G1 X210.621 Y45.376 E.01322
G1 X210.613 Y45.797 E.0132
G1 X210.534 Y46.211 E.01321
G1 X210.386 Y46.606 E.01323
G1 X210.173 Y46.97 E.01322
G1 X209.968 Y47.224 E.01023
G1 X209.58 Y47.566 E.01622
G1 X209.217 Y47.78 E.01321
G1 X208.822 Y47.93 E.01325
G1 X208.408 Y48.01 E.01322
G1 X207.987 Y48.02 E.0132
G1 X207.57 Y47.959 E.01321
G1 X207.169 Y47.827 E.01324
G1 X206.796 Y47.63 E.01323
G1 X206.462 Y47.373 E.01321
G1 X206.176 Y47.063 E.01322
G1 X205.947 Y46.709 E.01322
G1 X205.78 Y46.322 E.01322
G1 X205.682 Y45.911 E.01325
G1 X205.654 Y45.491 E.0132
G1 X205.712 Y45.025 E.01472
G1 X205.929 Y44.413 E.02036
G1 X206.195 Y43.988 E.01572
G1 X206.534 Y43.641 E.01521
G1 X206.878 Y43.397 E.01322
G1 X207.258 Y43.214 E.01322
G1 X207.711 Y43.094 E.01469
G1 X208.36 Y43.067 E.02037
G1 X208.855 Y43.156 E.01577
G1 X209.335 Y43.361 E.01637
G1 X209.623 Y43.546 E.01073
M204 S1000
G1 X209.623 Y43.546 F10800
G1 X209.421 Y43.865
M204 S800
;TYPE:External perimeter
G1 F1200
G1 X209.794 Y44.238 E.01654
G1 X210.061 Y44.663 E.01574
G1 X210.188 Y45.032 E.01224
G1 X210.244 Y45.376 E.01093
G1 X210.241 Y45.734 E.01123
G1 X210.178 Y46.086 E.01121
G1 X210.056 Y46.422 E.01121
G1 X209.88 Y46.733 E.0112
G1 X209.675 Y46.987 E.01023
G1 X209.382 Y47.245 E.01224
G1 X209.076 Y47.43 E.01121
G1 X208.743 Y47.561 E.01122
G1 X208.392 Y47.634 E.01124
G1 X208.035 Y47.646 E.0112
G1 X207.68 Y47.598 E.01123
G1 X207.339 Y47.491 E.01121
G1 X207.02 Y47.327 E.01125
G1 X206.734 Y47.112 E.01122
G1 X206.488 Y46.852 E.01122
G1 X206.29 Y46.554 E.01122
G1 X206.145 Y46.227 E.01122
G1 X206.058 Y45.879 E.01125
G1 X206.03 Y45.523 E.0112
G1 X206.068 Y45.151 E.01172
G1 X206.284 Y44.539 E.02035
G1 X206.508 Y44.201 E.01271
G1 X206.758 Y43.944 E.01124
G1 X207.047 Y43.733 E.01122
G1 X207.368 Y43.575 E.01122
G1 X207.727 Y43.471 E.01172
G1 X208.376 Y43.444 E.02037
G1 X208.773 Y43.526 E.01271
G1 X209.137 Y43.682 E.01242
G1 X209.373 Y43.83 E.00873
M204 S1000
;WIPE_START
G1 F8640
G1 X209.421 Y43.865 E-.01372
G1 X209.794 Y44.238 E-.1218
G1 X210.061 Y44.663 E-.11589
G1 X210.188 Y45.032 E-.09011
G1 X210.244 Y45.376 E-.08048
G1 X210.241 Y45.734 E-.08267
G1 X210.178 Y46.086 E-.08257
G1 X210.056 Y46.422 E-.08254
G1 X209.88 Y46.733 E-.08251
G1 X209.675 Y46.987 E-.07537
G1 X209.382 Y47.245 E-.09014
G1 X209.077 Y47.429 E-.0822
;WIPE_END
G1 Z.4 F720
G1 X236.883 Y48.302 F10800
G1 Z.2 F720
G1 E1 F2100
M204 S800
;TYPE:Perimeter
G1 F1200
G1 X236.424 Y48.387 E.01464
G1 X235.939 Y48.394 E.01521
G1 X235.459 Y48.319 E.01523
