; generated by PrusaSlicer 2.8.0+win64 on 2025-12-05 at 12:27:48 UTC


;
;
; 

; external perimeters extrusion width = 0.60mm
; perimeters extrusion width = 0.50mm
; infill extrusion width = 0.50mm
; solid infill extrusion width = 0.50mm
; top infill extrusion width = 0.45mm
; support material extrusion width = 0.38mm
; first layer extrusion width = 0.42mm

; external perimeters extrusion width = 0.60mm
; perimeters extrusion width = 0.50mm
; infill extrusion width = 0.50mm
; solid infill extrusion width = 0.50mm
; top infill extrusion width = 0.45mm
; support material extrusion width = 0.38mm
; first layer extrusion width = 0.42mm

M73 P0 R38
M73 Q0 S39
M201 X1000 Y1000 Z200 E5000 ; sets maximum accelerations, mm/sec^2
M203 X200 Y200 Z12 E120 ; sets maximum feedrates, mm / sec
M204 S1250 T1250 ; sets acceleration (S) and retract acceleration (R), mm/sec^2
M205 X8.00 Y8.00 Z0.40 E4.50 ; sets the jerk limits, mm/sec
M205 S0 T0 ; sets the minimum extruding and travel feed rate, mm/sec

; printing object led_holder.stl id:0 copy 0
; stop printing object led_holder.stl id:0 copy 0
; printing object led_holder2.stl id:1 copy 0
; stop printing object led_holder2.stl id:1 copy 0

;TYPE:Custom
M862.3 P "MK3S" ; printer model check
M862.1 P0.4 ; nozzle diameter check
M115 U3.13.3 ; tell printer latest fw version
G90 ; use absolute coordinates
M83 ; extruder relative mode
M104 S230 ; set extruder temp
M140 S85 ; set bed temp
M190 S85 ; wait for bed temp
M109 S230 ; wait for extruder temp
G28 W ; home all without mesh bed level
G80 X162.786 Y8.67039 W78.8455 H35.3386 ; mesh bed levelling

G1 Z0.2 F720
G1 Y-3 F1000 ; go outside print area
G92 E0
G1 X60 E9 F1000 ; intro line
G1 X100 E12.5 F1000 ; intro line

G92 E0
M221 S95

; Don't change E values below. Excessive value can damage the printer.

M907 E538 ; set extruder motor current
G21 ; set units to millimeters
G90 ; use absolute coordinates
M83 ; use relative distances for extrusion

M900 K0.08 ; Filament gcode LA 1.5
M900 K45 ; Filament gcode LA 1.0




M107
;LAYER_CHANGE
;Z:0.2
;HEIGHT:0.2
G1 E-1 F2100
G1 Z.4 F720
; printing object led_holder.stl id:0 copy 0
G1 X237.893 Y19.971 F10800
G1 Z.2 F720
G1 E1 F2100
M204 S800
;TYPE:Support material
;WIDTH:0.42
G1 F1200
G1 X238.542 Y20.504 E.02633
G1 X239.264 Y21.37 E.03535
G1 X239.811 Y22.366 E.03563
G1 X240.158 Y23.454 E.03581
G1 X240.291 Y24.591 E.03589
G1 X240.221 Y25.486 E.02815
G1 X240.745 Y26.556 E.03736
G1 X241.056 Y27.666 E.03614
G1 X241.161 Y28.814 E.03614
G1 X241.057 Y29.962 E.03614
G1 X240.765 Y31.006 E.03399
G1 X241.106 Y31.791 E.02684
G1 X241.371 Y32.886 E.03532
G1 X241.443 Y34.016 E.0355
G1 X241.315 Y35.143 E.03556
G1 X240.99 Y36.229 E.03554
G1 X240.48 Y37.237 E.03542
G1 X240.078 Y37.773 E.02101
G1 X240.017 Y38.389 E.01941
G1 X239.684 Y39.483 E.03586
G1 X239.143 Y40.491 E.03587
G1 X238.417 Y41.373 E.03582
G1 X237.532 Y42.096 E.03583
G1 X236.523 Y42.632 E.03582
G1 X235.429 Y42.96 E.03581
G1 X234.293 Y43.068 E.03578
M73 Q0 S38
G1 X233.159 Y42.952 E.03574
G1 X232.07 Y42.617 E.03572
G1 X231.068 Y42.077 E.03569
G1 X230.191 Y41.352 E.03568
G1 X229.503 Y40.51 E.03409
G1 X230.189 Y40.51 E.02151
G1 X230.523 Y40.176 E.01481
G1 X230.523 Y21.703 E.57921
G1 X230.189 Y21.37 E.01479
G1 X229.376 Y21.37 E.02549
G1 X229.684 Y20.918 E.01715
G1 X232.09 Y18.533 E.10622
G1 X232.976 Y19.268 E.03609
G1 X234.374 Y19.014 E.04455
G1 X234.728 Y18.252 E.02634
G1 X237.843 Y19.944 E.11115
M204 S1000
G1 X237.843 Y19.944 F10800
G1 X240.742 Y36.343
M204 S800
G1 F1200
G1 X240.742 Y31.805 E.14229
G1 X240.406 Y31.03 E.02649
G1 X240.722 Y29.9 E.03679
G1 X240.742 Y27.96 E.06083
G1 X240.323 Y26.466 E.04865
G1 X240.323 Y36.796 E.32389
G1 X239.904 Y37.439 E.02406
G1 X239.904 Y24.203 E.41501
G1 X239.825 Y23.526 E.02137
G1 X239.485 Y22.478 E.03455
G1 X239.485 Y38.97 E.5171
G1 X239.066 Y39.917 E.03247
G1 X239.066 Y21.715 E.57071
G1 X238.647 Y21.16 E.0218
G1 X238.647 Y40.56 E.60827
G1 X238.228 Y41.068 E.02065
G1 X238.228 Y20.685 E.63909
G1 X237.809 Y20.341 E.017
G1 X237.809 Y41.431 E.66126
G1 X237.39 Y41.773 E.01696
G1 X237.39 Y20.084 E.68004
G1 X236.971 Y19.857 E.01494
G1 X236.971 Y42.009 E.69456
G1 X236.552 Y42.232 E.01488
G1 X236.552 Y19.629 E.7087
G1 X236.133 Y19.401 E.01496
G1 X236.133 Y42.394 E.72093
G1 X235.714 Y42.52 E.01372
G1 X235.714 Y19.174 E.732
G1 X235.295 Y18.946 E.01496
M73 P1 R38
M73 Q1 S38
G1 X235.295 Y42.632 E.74266
G1 X234.876 Y42.671 E.01319
G1 X234.876 Y18.738 E.7504
G1 X234.605 Y19.322 E.02019
G1 X234.457 Y19.345 E.0047
G1 X234.457 Y42.711 E.73262
G1 X234.038 Y42.701 E.01314
G1 X234.038 Y19.408 E.73034
G1 X233.619 Y19.471 E.01329
M73 P1 R37
G1 X233.619 Y42.658 E.72701
G1 X233.2 Y42.609 E.01323
G1 X233.2 Y19.551 E.72297
G1 X232.905 Y19.65 E.00976
G1 X232.781 Y19.548 E.00503
G1 X232.781 Y42.481 E.71905
G1 X232.362 Y42.352 E.01375
G1 X232.362 Y19.2 E.72591
G1 X232.11 Y18.991 E.01027
G1 X231.943 Y19.157 E.00738
G1 X231.943 Y42.163 E.72134
G1 X231.525 Y41.937 E.0149
G1 X231.525 Y19.572 E.70124
G1 X231.106 Y19.987 E.01849
G1 X231.106 Y41.668 E.67979
G1 X230.687 Y41.322 E.01704
G1 X230.687 Y40.492 E.02602
G1 X230.268 Y40.849 E.01726
G1 X230.268 Y41.178 E.01032
M204 S1000
;WIPE_START
G1 F8640
G1 X230.268 Y40.849 E-.07597
G1 X230.687 Y40.492 E-.1271
G1 X230.687 Y41.322 E-.19165
G1 X231.106 Y41.668 E-.12547
G1 X231.106 Y39.59 E-.47981
;WIPE_END
G1 Z.4 F720
G1 X230.687 Y21.627 F10800
G1 Z.2 F720
G1 E1 F2100
M204 S800
G1 F1200
G1 X230.687 Y20.402 E.03841
G1 X230.268 Y20.817 E.01849
G1 X230.268 Y21.208 E.01226
M204 S1000
;WIPE_START
G1 F8640
G1 X230.268 Y20.817 E-.09028
G1 X230.687 Y20.402 E-.13617
G1 X230.687 Y21.627 E-.28286
;WIPE_END
G1 E-.49069 F2100
G1 Z.4 F720
G1 X173.306 Y19.251 F10800
G1 Z.2 F720
G1 E1 F2100
M204 S800
G1 F1200
G1 X174.437 Y19.483 E.0362
G1 X175.506 Y19.916 E.03616
G1 X176.479 Y20.536 E.03617
G1 X177.374 Y21.37 E.03836
G1 X176.717 Y21.37 E.0206
G1 X176.383 Y21.703 E.01479
G1 X176.383 Y40.176 E.57921
G1 X176.717 Y40.51 E.01481
G1 X177.933 Y40.51 E.03813
G1 X177.64 Y41.076 E.01998
G1 X176.937 Y41.971 E.03568
G1 X176.076 Y42.717 E.03572
G1 X175.091 Y43.286 E.03567
G1 X174.015 Y43.658 E.0357
G1 X172.888 Y43.82 E.0357
G1 X171.751 Y43.766 E.03569
G1 X170.645 Y43.498 E.03568
G1 X169.609 Y43.025 E.03571
G1 X168.682 Y42.364 E.0357
G1 X167.896 Y41.54 E.0357
G1 X167.281 Y40.583 E.03567
G1 X166.858 Y39.526 E.0357
G1 X166.642 Y38.408 E.0357
G1 X166.642 Y37.27 E.03568
G1 X166.717 Y36.881 E.01242
G1 X166.177 Y35.91 E.03484
G1 X165.938 Y35.273 E.02133
G1 X165.718 Y34.33 E.03036
G1 X164.714 Y33.488 E.04108
G1 X164.016 Y32.621 E.0349
G1 X163.5 Y31.664 E.03409
G1 X163.127 Y30.527 E.03752
G1 X162.975 Y28.852 E.05273
G1 X163.127 Y27.712 E.03606
G1 X163.296 Y27.119 E.01933
G1 X163.5 Y26.575 E.01822
G1 X164.016 Y25.618 E.03409
G1 X164.739 Y24.72 E.03615
G1 X165.585 Y23.991 E.03502
G1 X166.684 Y23.354 E.03983
G1 X167.332 Y22.043 E.04585
G1 X168.055 Y21.143 E.0362
G1 X168.93 Y20.389 E.03622
G1 X169.897 Y19.825 E.0351
G1 X170.51 Y19.586 E.02063
G1 X171.057 Y19.408 E.01804
G1 X172.152 Y19.228 E.03479
G1 X173.25 Y19.25 E.03443
M204 S1000
;WIPE_START
G1 F8640
G1 X172.152 Y19.228 E-.25358
G1 X171.057 Y19.408 E-.25623
G1 X170.51 Y19.586 E-.13282
G1 X169.897 Y19.825 E-.15192
G1 X169.128 Y20.273 E-.20545
;WIPE_END
G1 Z.4 F720
G1 X177.057 Y41.543 F10800
G1 Z.2 F720
G1 E1 F2100
M204 S800
G1 F1200
G1 X177.057 Y40.849 E.02176
G1 X176.639 Y40.849 E.01311
G1 X176.639 Y41.78 E.02919
G1 X176.22 Y42.143 E.01738
G1 X176.22 Y40.492 E.05177
G1 X176.044 Y40.316 E.0078
G1 X176.044 Y21.563 E.58799
G1 X176.22 Y21.387 E.0078
G1 X176.22 Y20.773 E.01925
G1 X175.801 Y20.506 E.01558
G1 X175.801 Y42.484 E.6891
G1 X175.382 Y42.726 E.01517
G1 X175.382 Y20.239 E.70506
G1 X174.963 Y20.062 E.01426
G1 X174.949 Y42.976 E.71845
G1 X174.544 Y43.116 E.01344
M73 P2 R37
M73 Q2 S38
G1 X174.544 Y19.892 E.72817
G1 X174.125 Y19.765 E.01373
G1 X174.125 Y43.261 E.7367
G1 X173.706 Y43.36 E.0135
G1 X173.706 Y19.679 E.7425
G1 X173.287 Y19.593 E.01341
G1 X173.287 Y43.42 E.74708
G1 X172.868 Y43.479 E.01327
G1 X172.868 Y19.582 E.74927
G1 X172.449 Y19.573 E.01314
G1 X172.449 Y43.459 E.74893
G1 X172.03 Y43.439 E.01315
G1 X172.03 Y19.592 E.74771
G1 X171.611 Y19.661 E.01331
G1 X171.611 Y43.383 E.74379
G1 X171.192 Y43.281 E.01352
G1 X171.192 Y19.73 E.73843
G1 X170.773 Y19.858 E.01374
G1 X170.773 Y43.179 E.73121
G1 X170.354 Y42.992 E.01439
G1 X170.354 Y20.011 E.72055
G1 X169.935 Y20.195 E.01435
G1 X169.935 Y42.8 E.70876
G1 X169.516 Y42.542 E.01543
G1 X169.516 Y20.44 E.69299
G1 X169.097 Y20.693 E.01535
G1 X169.097 Y42.243 E.67569
G1 X168.678 Y41.869 E.01761
G1 X168.678 Y21.054 E.65264
G1 X168.259 Y21.431 E.01767
G1 X168.259 Y41.429 E.62702
G1 X167.84 Y40.825 E.02305
G1 X167.84 Y21.953 E.59172
G1 X167.421 Y22.594 E.02401
G1 X167.421 Y40.02 E.54638
G1 X167.185 Y39.43 E.01992
G1 X167.002 Y38.482 E.03027
G1 X167.002 Y23.473 E.4706
G1 X166.957 Y23.592 E.00399
M73 Q2 S37
G1 X166.583 Y23.794 E.01333
G1 X166.583 Y35.962 E.38152
G1 X166.164 Y34.833 E.03776
M73 P3 R37
G1 X166.164 Y24.032 E.33866
G1 X165.745 Y24.302 E.01563
M73 Q3 S37
G1 X165.745 Y33.933 E.30197
G1 X165.326 Y33.587 E.01704
G1 X165.326 Y24.662 E.27984
G1 X164.907 Y25.052 E.01795
G1 X164.907 Y33.187 E.25507
G1 X164.488 Y32.666 E.02096
G1 X164.488 Y25.573 E.2224
G1 X164.069 Y26.235 E.02456
G1 X164.069 Y32.004 E.18088
G1 X163.65 Y31.098 E.0313
G1 X163.65 Y26.658 E.13921
M204 S1000
;WIPE_START
G1 F8640
G1 X163.65 Y30.989 E-1
;WIPE_END
G1 Z.4 F720
G1 X199.333 Y34.809 F10800
G1 Z.2 F720
G1 E1 F2100
M204 S800
;TYPE:Perimeter
;WIDTH:0.419999
G1 F1200
G1 X199.128 Y34.788 E.00646
G1 X198.306 Y34.515 E.02716
G1 X197.564 Y34.068 E.02716
G1 X196.938 Y33.47 E.02714
G1 X196.458 Y32.75 E.02713
G1 X196.153 Y31.963 E.02646
G1 X196.02 Y31.092 E.02763
G1 X196.019 Y30.794 E.00934
G1 X196.083 Y30.221 E.01808
G1 X196.334 Y29.392 E.02716
G1 X196.76 Y28.638 E.02715
G1 X197.34 Y27.996 E.02713
G1 X198.047 Y27.495 E.02717
G1 X198.847 Y27.162 E.02717
G1 X199.677 Y27.014 E.02643
G1 X200.196 Y27.007 E.01627
G1 X200.989 Y27.142 E.02522
G1 X201.794 Y27.46 E.02714
G1 X202.51 Y27.947 E.02715
G1 X203.103 Y28.579 E.02717
G1 X203.543 Y29.325 E.02716
G1 X203.809 Y30.149 E.02715
G1 X203.889 Y31.011 E.02714
G1 X203.778 Y31.87 E.02716
G1 X203.482 Y32.684 E.02716
G1 X203.015 Y33.413 E.02715
G1 X202.4 Y34.023 E.02716
G1 X201.666 Y34.484 E.02718
G1 X200.871 Y34.767 E.02646
G1 X199.997 Y34.875 E.02761
G1 X199.392 Y34.815 E.01906
M204 S1000
G1 X199.392 Y34.815 F10800
G1 X199.405 Y34.439
M204 S800
G1 F1200
G1 X199.18 Y34.415 E.00709
G1 X198.439 Y34.162 E.02455
G1 X197.771 Y33.753 E.02456
G1 X197.208 Y33.207 E.02459
G1 X196.779 Y32.552 E.02455
G1 X196.509 Y31.84 E.02388
G1 X196.395 Y31.048 E.02509
G1 X196.458 Y30.263 E.02469
G1 X196.69 Y29.515 E.02456
G1 X197.081 Y28.836 E.02457
G1 X197.611 Y28.258 E.02459
G1 X198.254 Y27.811 E.02455
G1 X198.979 Y27.515 E.02455
G1 X199.73 Y27.387 E.02389
G1 X200.35 Y27.402 E.01945
G1 X200.916 Y27.512 E.01808
G1 X201.643 Y27.806 E.02459
G1 X202.287 Y28.251 E.02454
G1 X202.818 Y28.827 E.02456
G1 X203.211 Y29.504 E.02454
G1 X203.446 Y30.252 E.02458
G1 X203.512 Y31.032 E.02454
G1 X203.406 Y31.808 E.02456
G1 X203.132 Y32.542 E.02457
G1 X202.705 Y33.199 E.02457
G1 X202.144 Y33.746 E.02457
G1 X201.478 Y34.157 E.02454
G1 X200.758 Y34.407 E.0239
G1 X199.964 Y34.499 E.02506
G1 X199.464 Y34.446 E.01576
M204 S1000
G1 X199.464 Y34.446 F10800
G1 X199.476 Y34.07
M204 S800
G1 F1200
G1 X199.232 Y34.041 E.0077
G1 X198.571 Y33.809 E.02196
G1 X197.977 Y33.437 E.02198
G1 X197.479 Y32.944 E.02197
G1 X197.1 Y32.355 E.02196
G1 X196.866 Y31.717 E.02131
G1 X196.769 Y31.005 E.02253
G1 X196.833 Y30.304 E.02207
G1 X197.047 Y29.637 E.02196
G1 X197.402 Y29.033 E.02197
G1 X197.881 Y28.521 E.02198
G1 X198.46 Y28.127 E.02196
G1 X199.111 Y27.868 E.02197
G1 X199.782 Y27.76 E.02131
G1 X200.278 Y27.772 E.01556
G1 X200.844 Y27.882 E.01808
G1 X201.491 Y28.151 E.02197
G1 X202.064 Y28.555 E.02198
G1 X202.534 Y29.074 E.02195
G1 X202.88 Y29.684 E.02199
G1 X203.083 Y30.354 E.02195
G1 X203.136 Y31.053 E.02198
G1 X203.034 Y31.746 E.02196
G1 X202.783 Y32.4 E.02196
G1 X202.395 Y32.984 E.02198
G1 X201.889 Y33.468 E.02195
G1 X201.289 Y33.83 E.02197
G1 X200.645 Y34.047 E.02131
G1 X199.931 Y34.124 E.02252
G1 X199.536 Y34.077 E.01247
M204 S1000
G1 X199.536 Y34.077 F10800
G1 X199.548 Y33.703
M204 S800
;TYPE:External perimeter
G1 F1200
G1 X199.284 Y33.668 E.00835
G1 X198.703 Y33.455 E.0194
G1 X198.183 Y33.121 E.01938
G1 X197.749 Y32.681 E.01938
G1 X197.421 Y32.157 E.01938
G1 X197.222 Y31.594 E.01872
G1 X197.144 Y30.961 E.02
G1 X197.207 Y30.346 E.01938
G1 X197.404 Y29.759 E.01941
G1 X197.723 Y29.231 E.01934
G1 X198.151 Y28.784 E.0194
G1 X198.666 Y28.442 E.01938
G1 X199.243 Y28.221 E.01937
G1 X199.835 Y28.134 E.01876
G1 X200.206 Y28.142 E.01164
G1 X200.772 Y28.252 E.01808
G1 X201.34 Y28.496 E.01938
G1 X201.84 Y28.859 E.01937
G1 X202.25 Y29.322 E.01939
G1 X202.548 Y29.863 E.01937
G1 X202.721 Y30.457 E.0194
G1 X202.759 Y31.074 E.01938
G1 X202.662 Y31.684 E.01937
G1 X202.434 Y32.258 E.01937
G1 X202.085 Y32.769 E.0194
G1 X201.633 Y33.191 E.01939
G1 X201.1 Y33.504 E.01938
G1 X200.532 Y33.688 E.01872
G1 X199.897 Y33.748 E.02
G1 X199.608 Y33.71 E.00914
M204 S1000
;WIPE_START
G1 F8640
G1 X199.548 Y33.703 E-.01395
G1 X199.284 Y33.668 E-.06149
G1 X198.703 Y33.455 E-.14289
G1 X198.183 Y33.121 E-.1427
G1 X197.749 Y32.681 E-.1427
G1 X197.421 Y32.157 E-.14274
G1 X197.222 Y31.594 E-.13788
G1 X197.144 Y30.961 E-.14727
G1 X197.174 Y30.666 E-.06838
;WIPE_END
G1 Z.4 F720
G1 X214.74 Y34.174 F10800
G1 Z.2 F720
G1 E1 F2100
M204 S800
;TYPE:Perimeter
G1 F1200
G1 X214.564 Y34.068 E.00644
G1 X213.938 Y33.47 E.02714
G1 X213.458 Y32.75 E.02713
G1 X213.146 Y31.941 E.02719
G1 X213.019 Y31.085 E.02713
G1 X213.031 Y30.688 E.01245
G1 X213.097 Y30.127 E.01771
G1 X213.334 Y29.392 E.02421
G1 X213.76 Y28.638 E.02715
G1 X214.34 Y27.995 E.02715
G1 X215.047 Y27.495 E.02715
G1 X215.847 Y27.162 E.02717
G1 X216.677 Y27.014 E.02643
G1 X217.196 Y27.007 E.01627
G1 X217.989 Y27.142 E.02522
G1 X218.794 Y27.46 E.02714
G1 X219.51 Y27.947 E.02715
G1 X220.103 Y28.579 E.02717
G1 X220.543 Y29.325 E.02716
G1 X220.809 Y30.149 E.02715
G1 X220.889 Y31.011 E.02714
G1 X220.778 Y31.87 E.02716
G1 X220.482 Y32.684 E.02716
G1 X220.015 Y33.413 E.02715
G1 X219.4 Y34.023 E.02716
G1 X218.666 Y34.484 E.02718
G1 X217.85 Y34.772 E.02713
G1 X216.99 Y34.876 E.02716
G1 X216.128 Y34.788 E.02717
G1 X215.306 Y34.515 E.02716
G1 X214.792 Y34.205 E.01882
M204 S1000
G1 X214.792 Y34.205 F10800
G1 X214.963 Y33.871
M204 S800
G1 F1200
G1 X214.771 Y33.753 E.00707
G1 X214.208 Y33.207 E.02459
G1 X213.779 Y32.552 E.02455
G1 X213.503 Y31.819 E.02456
G1 X213.394 Y31.043 E.02457
G1 X213.406 Y30.73 E.00982
G1 X213.468 Y30.196 E.01686
G1 X213.69 Y29.515 E.02246
G1 X214.081 Y28.836 E.02457
G1 X214.611 Y28.258 E.02459
G1 X215.254 Y27.811 E.02455
G1 X215.979 Y27.515 E.02455
G1 X216.73 Y27.387 E.02389
G1 X217.35 Y27.402 E.01945
G1 X217.916 Y27.512 E.01808
G1 X218.643 Y27.806 E.02459
G1 X219.287 Y28.251 E.02454
G1 X219.818 Y28.827 E.02456
G1 X220.211 Y29.504 E.02454
G1 X220.446 Y30.252 E.02458
G1 X220.512 Y31.032 E.02454
G1 X220.406 Y31.808 E.02456
G1 X220.132 Y32.542 E.02457
G1 X219.705 Y33.199 E.02457
G1 X219.144 Y33.746 E.02457
G1 X218.478 Y34.157 E.02454
G1 X217.737 Y34.412 E.02457
G1 X216.959 Y34.5 E.02455
G1 X216.18 Y34.415 E.02457
G1 X215.439 Y34.162 E.02455
G1 X215.014 Y33.902 E.01562
M204 S1000
G1 X215.014 Y33.902 F10800
G1 X215.186 Y33.568
M204 S800
G1 F1200
G1 X214.977 Y33.437 E.00773
G1 X214.479 Y32.944 E.02197
G1 X214.1 Y32.355 E.02196
G1 X213.86 Y31.697 E.02196
G1 X213.769 Y31.002 E.02198
G1 X213.781 Y30.771 E.00725
G1 X213.838 Y30.264 E.016
G1 X214.047 Y29.637 E.02072
G1 X214.402 Y29.033 E.02197
G1 X214.881 Y28.521 E.02198
G1 X215.46 Y28.127 E.02196
G1 X216.111 Y27.868 E.02197
G1 X216.782 Y27.76 E.02131
G1 X217.278 Y27.772 E.01556
G1 X217.844 Y27.882 E.01808
G1 X218.491 Y28.151 E.02197
G1 X219.064 Y28.555 E.02198
G1 X219.534 Y29.074 E.02195
G1 X219.88 Y29.684 E.02199
G1 X220.083 Y30.354 E.02195
G1 X220.136 Y31.053 E.02198
G1 X220.034 Y31.746 E.02196
G1 X219.783 Y32.4 E.02196
