; generated by PrusaSlicer 2.8.0+win64 on 2025-12-04 at 09:48:32 UTC


;
;
; 

; external perimeters extrusion width = 0.60mm
; perimeters extrusion width = 0.50mm
; infill extrusion width = 0.50mm
; solid infill extrusion width = 0.50mm
; top infill extrusion width = 0.45mm
; support material extrusion width = 0.38mm
; first layer extrusion width = 0.42mm

M73 P0 R44
M73 Q0 S44
M201 X1000 Y1000 Z200 E5000 ; sets maximum accelerations, mm/sec^2
M203 X200 Y200 Z12 E120 ; sets maximum feedrates, mm / sec
M204 S1250 T1250 ; sets acceleration (S) and retract acceleration (R), mm/sec^2
M205 X8.00 Y8.00 Z0.40 E4.50 ; sets the jerk limits, mm/sec
M205 S0 T0 ; sets the minimum extruding and travel feed rate, mm/sec

; printing object sensor_inside.stl id:0 copy 0
; stop printing object sensor_inside.stl id:0 copy 0

;TYPE:Custom
M862.3 P "MK3S" ; printer model check
M862.1 P0.4 ; nozzle diameter check
M115 U3.13.3 ; tell printer latest fw version
G90 ; use absolute coordinates
M83 ; extruder relative mode
M104 S230 ; set extruder temp
M140 S85 ; set bed temp
M190 S85 ; wait for bed temp
M109 S230 ; wait for extruder temp
G28 W ; home all without mesh bed level
G80 X198.2 Y13.582 W30 H30 ; mesh bed levelling

G1 Z0.2 F720
G1 Y-3 F1000 ; go outside print area
G92 E0
G1 X60 E9 F1000 ; intro line
G1 X100 E12.5 F1000 ; intro line

G92 E0
M221 S95

; Don't change E values below. Excessive value can damage the printer.

M907 E538 ; set extruder motor current
G21 ; set units to millimeters
G90 ; use absolute coordinates
M83 ; use relative distances for extrusion

M900 K0.08 ; Filament gcode LA 1.5
M900 K45 ; Filament gcode LA 1.0




M107
;LAYER_CHANGE
;Z:0.2
;HEIGHT:0.2
G1 E-1 F2100
G1 Z.4 F720
; printing object sensor_inside.stl id:0 copy 0
G1 X213.263 Y26.412 F10800
G1 Z.2 F720
G1 E1 F2100
M204 S800
;TYPE:Perimeter
;WIDTH:0.419999
G1 F1200
G1 X213.897 Y26.515 E.02014
G1 X214.364 Y26.733 E.01616
G1 X214.761 Y27.083 E.01659
G1 X215.005 Y27.35 E.01134
G1 X215.245 Y27.822 E.0166
;WIDTH:0.45246
G1 X215.324 Y28.088 E.00945
;WIDTH:0.48492
G1 X215.402 Y28.354 E.01019
;WIDTH:0.515692
G1 X215.425 Y28.44 E.0035
;WIDTH:0.546464
G1 X215.447 Y28.525 E.00368
;WIDTH:0.572516
G1 X215.439 Y28.896 E.01634
G1 X215.373 Y29.044 E.00714
;WIDTH:0.534387
G1 X215.307 Y29.192 E.00662
;WIDTH:0.496258
G1 X215.241 Y29.34 E.00611
;WIDTH:0.458129
G1 X215.175 Y29.488 E.00559
;WIDTH:0.419999
G1 X215.07 Y29.712 E.00776
G1 X214.766 Y30.106 E.0156
G1 X214.351 Y30.435 E.0166
G1 X213.848 Y30.665 E.01734
G1 X213.327 Y30.763 E.01662
G1 X212.779 Y30.728 E.01722
G1 X212.304 Y30.554 E.01586
G1 X212.017 Y30.419 E.00994
G1 X211.615 Y30.081 E.01647
G1 X211.287 Y29.63 E.01749
;WIDTH:0.432753
G1 X211.082 Y29.142 E.01716
;WIDTH:0.479299
G1 X211.043 Y29.054 E.00349
;WIDTH:0.525845
G1 X211.005 Y28.967 E.00381
;WIDTH:0.572391
G1 X210.967 Y28.88 E.00418
G1 X210.953 Y28.51 E.0163
;WIDTH:0.548131
G1 X210.998 Y28.348 E.00706
;WIDTH:0.505421
G1 X211.043 Y28.186 E.00647
;WIDTH:0.46271
G1 X211.088 Y28.025 E.00584
;WIDTH:0.419999
G1 X211.269 Y27.561 E.01562
G1 X211.572 Y27.13 E.01652
G1 X211.977 Y26.777 E.01684
G1 X212.14 Y26.677 E.006
G1 X212.669 Y26.467 E.01785
G1 X213.18 Y26.398 E.01617
G1 X213.204 Y26.402 E.00076
M204 S1000
G1 X213.204 Y26.402 F10800
G1 X213.252 Y26.777
M204 S800
;TYPE:External perimeter
G1 F1200
G1 X213.266 Y26.776 E.00044
G1 X213.825 Y26.886 E.01786
G1 X214.232 Y27.098 E.01439
G1 X214.643 Y27.493 E.01787
G1 X214.878 Y27.907 E.01493
G1 X215.003 Y28.447 E.01738
G1 X214.976 Y28.921 E.01489
G1 X214.79 Y29.443 E.01737
G1 X214.519 Y29.821 E.01458
G1 X214.195 Y30.092 E.01324
G1 X213.691 Y30.322 E.01737
G1 X213.274 Y30.39 E.01325
G1 X212.828 Y30.35 E.01404
G1 X212.296 Y30.147 E.01785
G1 X211.918 Y29.856 E.01496
G1 X211.592 Y29.408 E.01737
G1 X211.433 Y28.971 E.01458
G1 X211.391 Y28.56 E.01295
G1 X211.443 Y28.151 E.01293
G1 X211.586 Y27.764 E.01294
G1 X211.82 Y27.414 E.0132
G1 X212.225 Y27.061 E.01684
G1 X212.809 Y26.817 E.01984
G1 X213.192 Y26.783 E.01206
M204 S1000
;WIPE_START
G1 F8640
G1 X213.252 Y26.777 E-.01392
G1 X213.266 Y26.776 E-.00324
G1 X213.825 Y26.886 E-.13155
G1 X214.232 Y27.098 E-.10596
G1 X214.643 Y27.493 E-.13162
G1 X214.878 Y27.907 E-.10992
G1 X215.003 Y28.447 E-.12798
G1 X214.976 Y28.921 E-.10963
G1 X214.79 Y29.443 E-.12795
G1 X214.519 Y29.821 E-.10739
G1 X214.416 Y29.907 E-.03084
;WIPE_END
G1 Z.4 F720
G1 X213.297 Y25.275 F10800
G1 Z.2 F720
G1 E1 F2100
M204 S800
;TYPE:Perimeter
G1 F1200
G1 X214.114 Y25.405 E.02594
G1 X214.577 Y25.568 E.01539
G1 X215.017 Y25.806 E.01568
G1 X215.699 Y26.403 E.02842
G1 X216.113 Y26.03 E.01747
G1 X216.537 Y25.711 E.01664
G1 X217.262 Y25.411 E.0246
G1 X217.729 Y25.302 E.01504
G1 X218.261 Y25.265 E.01672
G1 X219.114 Y25.405 E.0271
G1 X219.577 Y25.568 E.01539
G1 X220.033 Y25.816 E.01628
G1 X220.687 Y26.404 E.02757
G1 X220.99 Y26.794 E.01548
G1 X221.274 Y27.331 E.01905
G1 X221.472 Y28.105 E.02505
G1 X221.514 Y28.586 E.01514
G1 X221.47 Y29.152 E.0178
G1 X221.322 Y29.691 E.01753
G1 X221.001 Y30.352 E.02304
G1 X220.692 Y30.75 E.0158
G1 X220.307 Y31.129 E.01694
G1 X219.926 Y31.412 E.01488
G1 X219.455 Y31.631 E.01629
G1 X218.929 Y31.818 E.0175
G1 X218.386 Y31.894 E.01719
G1 X217.734 Y31.862 E.02047
G1 X217.264 Y31.753 E.01513
G1 X216.748 Y31.552 E.01736
G1 X216.327 Y31.315 E.01515
G1 X215.897 Y30.971 E.01727
G1 X215.707 Y30.754 E.00904
G1 X215.336 Y31.109 E.0161
G1 X214.946 Y31.4 E.01526
G1 X214.139 Y31.764 E.02776
G1 X213.488 Y31.883 E.02075
G1 X213.106 Y31.894 E.01198
G1 X212.548 Y31.835 E.01759
G1 X211.901 Y31.611 E.02147
G1 X211.487 Y31.424 E.01424
G1 X211.041 Y31.094 E.0174
G1 X210.696 Y30.751 E.01525
G1 X210.299 Y31.137 E.01736
G1 X209.946 Y31.4 E.0138
G1 X209.457 Y31.63 E.01694
G1 X208.959 Y31.812 E.01662
G1 X208.302 Y31.899 E.02078
G1 X207.734 Y31.862 E.01785
G1 X207.264 Y31.753 E.01513
G1 X206.748 Y31.552 E.01736
G1 X206.327 Y31.315 E.01515
G1 X205.904 Y30.978 E.01696
G1 X205.523 Y30.533 E.01837
G1 X205.273 Y30.12 E.01514
G1 X205.058 Y29.61 E.01735
G1 X204.935 Y29.143 E.01514
G1 X204.882 Y28.582 E.01767
G1 X204.935 Y28.021 E.01767
G1 X205.147 Y27.296 E.02368
G1 X205.505 Y26.655 E.02302
G1 X205.815 Y26.294 E.01492
G1 X206.242 Y25.919 E.01782
G1 X206.631 Y25.662 E.01462
G1 X207.262 Y25.411 E.02129
G1 X207.729 Y25.302 E.01504
G1 X208.32 Y25.267 E.01856
G1 X209.024 Y25.388 E.0224
G1 X209.53 Y25.544 E.0166
G1 X210.022 Y25.809 E.01752
G1 X210.699 Y26.403 E.02824
G1 X211.113 Y26.029 E.01749
G1 X211.532 Y25.715 E.01642
G1 X212.252 Y25.415 E.02446
G1 X212.729 Y25.302 E.01537
G1 X213.23 Y25.264 E.01575
G1 X213.238 Y25.266 E.00026
M204 S1000
G1 X213.238 Y25.266 F10800
G1 X213.283 Y25.644
M204 S800
G1 F1200
G1 X213.299 Y25.643 E.0005
G1 X214.042 Y25.775 E.02366
G1 X214.402 Y25.902 E.01197
G1 X214.941 Y26.216 E.01956
G1 X215.426 Y26.676 E.02096
G1 X215.701 Y27.049 E.01453
G1 X215.976 Y26.659 E.01496
G1 X216.36 Y26.315 E.01616
G1 X216.72 Y26.04 E.0142
G1 X217.399 Y25.763 E.02299
G1 X217.762 Y25.678 E.01169
G1 X218.391 Y25.651 E.01974
G1 X219.042 Y25.775 E.02078
G1 X219.402 Y25.902 E.01197
G1 X219.95 Y26.224 E.01993
G1 X220.426 Y26.676 E.02058
G1 X220.662 Y26.98 E.01207
G1 X220.923 Y27.469 E.01738
G1 X221.105 Y28.19 E.02332
G1 X221.137 Y28.565 E.0118
G1 X221.098 Y29.087 E.01641
G1 X220.961 Y29.585 E.01619
G1 X220.673 Y30.167 E.02036
G1 X220.428 Y30.481 E.01249
G1 X220.043 Y30.861 E.01696
G1 X219.746 Y31.08 E.01157
G1 X219.161 Y31.351 E.02021
G1 X218.8 Y31.457 E.0118
G1 X218.28 Y31.523 E.01644
G1 X217.766 Y31.487 E.01616
G1 X217.4 Y31.402 E.01178
G1 X216.884 Y31.201 E.01736
G1 X216.557 Y31.016 E.01178
G1 X216.157 Y30.699 E.016
G1 X215.707 Y30.115 E.02312
G1 X215.338 Y30.602 E.01916
G1 X214.889 Y30.99 E.01861
G1 X214.328 Y31.275 E.01973
G1 X213.841 Y31.451 E.01624
G1 X213.286 Y31.522 E.01754
G1 X212.786 Y31.489 E.01571
G1 X212.425 Y31.407 E.01161
G1 X211.892 Y31.204 E.01788
G1 X211.557 Y31.016 E.01204
G1 X211.265 Y30.791 E.01156
G1 X211.003 Y30.522 E.01177
G1 X210.704 Y30.11 E.01596
G1 X210.433 Y30.481 E.01441
G1 X210.036 Y30.867 E.01736
G1 X209.665 Y31.121 E.0141
G1 X209.161 Y31.351 E.01737
G1 X208.8 Y31.457 E.0118
G1 X208.29 Y31.522 E.01612
G1 X207.766 Y31.487 E.01647
G1 X207.4 Y31.402 E.01178
G1 X206.884 Y31.201 E.01736
G1 X206.557 Y31.016 E.01178
G1 X206.163 Y30.704 E.01576
G1 X205.815 Y30.295 E.01684
G1 X205.621 Y29.973 E.01179
G1 X205.405 Y29.463 E.01737
G1 X205.309 Y29.1 E.01177
G1 X205.259 Y28.582 E.01632
G1 X205.309 Y28.064 E.01632
G1 X205.502 Y27.423 E.02099
G1 X205.823 Y26.858 E.02037
G1 X206.064 Y26.578 E.01158
G1 X206.491 Y26.202 E.01784
G1 X206.864 Y25.971 E.01376
G1 X207.399 Y25.763 E.018
G1 X207.762 Y25.678 E.01169
G1 X208.3 Y25.643 E.0169
G1 X208.951 Y25.758 E.02073
G1 X209.402 Y25.902 E.01484
G1 X209.95 Y26.224 E.01993
G1 X210.426 Y26.676 E.02058
G1 X210.701 Y27.049 E.01453
G1 X210.976 Y26.659 E.01496
G1 X211.361 Y26.313 E.01623
G1 X211.713 Y26.046 E.01385
G1 X212.391 Y25.766 E.023
G1 X212.762 Y25.678 E.01196
G1 X213.223 Y25.648 E.01448
M204 S1000
G1 X213.223 Y25.648 F10800
G1 X213.273 Y26.037
M204 S800
G1 F1200
G1 X213.393 Y26.033 E.00376
G1 X213.97 Y26.145 E.01843
G1 X214.226 Y26.236 E.00852
G1 X214.701 Y26.507 E.01715
G1 X215.165 Y26.948 E.02007
G1 X215.433 Y27.342 E.01494
G1 X215.612 Y27.736 E.01357
G1 X215.691 Y28.076 E.01094
G1 X215.857 Y27.55 E.01729
G1 X216.151 Y27.046 E.01829
G1 X216.327 Y26.844 E.0084
G1 X216.745 Y26.481 E.01736
G1 X217.02 Y26.315 E.01007
G1 X217.536 Y26.114 E.01736
G1 X217.795 Y26.053 E.00834
G1 X218.345 Y26.026 E.01727
G1 X218.97 Y26.145 E.01995
G1 X219.226 Y26.236 E.00852
G1 X219.708 Y26.513 E.01743
G1 X220.165 Y26.948 E.01978
G1 X220.333 Y27.165 E.0086
G1 X220.572 Y27.606 E.01573
G1 X220.738 Y28.276 E.02164
G1 X220.74 Y28.912 E.01994
G1 X220.599 Y29.479 E.01832
G1 X220.344 Y29.982 E.01768
G1 X220.163 Y30.213 E.0092
G1 X219.778 Y30.592 E.01694
G1 X219.508 Y30.778 E.01028
G1 X219.005 Y31.008 E.01734
G1 X218.747 Y31.084 E.00843
G1 X218.207 Y31.145 E.01704
G1 X217.685 Y31.094 E.01644
G1 X217.192 Y30.916 E.01643
G1 X216.787 Y30.717 E.01415
G1 X216.365 Y30.371 E.01711
G1 X216.042 Y29.934 E.01704
G1 X215.857 Y29.614 E.01159
;WIDTH:0.431962
G1 X215.695 Y29.204 E.01426
G1 X215.501 Y29.696 E.01711
;WIDTH:0.419999
G1 X215.375 Y29.934 E.00844
G1 X215.069 Y30.338 E.01589
G1 X214.668 Y30.685 E.01663
G1 X214.171 Y30.932 E.0174
G1 X213.747 Y31.084 E.01412
G1 X213.247 Y31.146 E.0158
G1 X212.702 Y31.097 E.01716
G1 X212.17 Y30.906 E.01772
G1 X211.787 Y30.717 E.01339
G1 X211.311 Y30.305 E.01974
G1 X210.982 Y29.852 E.01755
;WIDTH:0.432753
G1 X210.698 Y29.21 E.02276
G1 X210.515 Y29.677 E.01626
;WIDTH:0.419999
G1 X210.174 Y30.206 E.01973
G1 X209.774 Y30.596 E.01752
G1 X209.508 Y30.778 E.01011
G1 X209.005 Y31.008 E.01734
G1 X208.747 Y31.084 E.00843
G1 X208.278 Y31.145 E.01483
G1 X207.754 Y31.106 E.01648
G1 X207.021 Y30.85 E.02434
G1 X206.787 Y30.717 E.00844
G1 X206.376 Y30.383 E.01661
G1 X206.03 Y29.949 E.0174
G1 X205.752 Y29.317 E.02165
G1 X205.642 Y28.689 E.01999
G1 X205.684 Y28.107 E.0183
G1 X205.857 Y27.55 E.01829
G1 X206.14 Y27.061 E.01771
G1 X206.313 Y26.861 E.00829
G1 X206.74 Y26.485 E.01784
G1 X207.02 Y26.315 E.01027
G1 X207.536 Y26.114 E.01736
G1 X207.795 Y26.053 E.00834
G1 X208.349 Y26.026 E.01739
G1 X208.879 Y26.128 E.01692
G1 X209.226 Y26.236 E.01139
G1 X209.707 Y26.512 E.01739
G1 X210.165 Y26.948 E.01983
G1 X210.433 Y27.342 E.01494
G1 X210.612 Y27.736 E.01357
G1 X210.691 Y28.076 E.01094
G1 X210.857 Y27.55 E.01729
G1 X211.151 Y27.046 E.01829
G1 X211.324 Y26.846 E.00829
G1 X211.729 Y26.493 E.01684
G1 X212.001 Y26.327 E.00999
G1 X212.53 Y26.116 E.01786
G1 X212.795 Y26.053 E.00854
G1 X213.213 Y26.039 E.01311
M204 S1000
;WIPE_START
G1 F8640
G1 X213.273 Y26.037 E-.01386
G1 X213.393 Y26.033 E-.02772
G1 X213.97 Y26.145 E-.13572
G1 X214.226 Y26.236 E-.06273
G1 X214.701 Y26.507 E-.12627
G1 X215.165 Y26.948 E-.14781
G1 X215.433 Y27.342 E-.11003
G1 X215.612 Y27.736 E-.09992
G1 X215.691 Y28.076 E-.0806
G1 X215.857 Y27.55 E-.12736
G1 X216.006 Y27.296 E-.06798
;WIPE_END
G1 Z.4 F720
G1 X206.245 Y27.621 F10800
G1 Z.2 F720
G1 E1 F2100
M204 S800
G1 F1200
G1 X206.268 Y27.562 E.00199
G1 X206.561 Y27.144 E.01601
G1 X206.989 Y26.769 E.01784
G1 X207.157 Y26.666 E.00618
G1 X207.673 Y26.465 E.01736
G1 X208.18 Y26.398 E.01603
G1 X208.807 Y26.498 E.01991
G1 X209.051 Y26.57 E.00798
G1 X209.493 Y26.826 E.01602
G1 X209.904 Y27.22 E.01785
G1 X210.187 Y27.672 E.01672
;WIDTH:0.428418
G1 X210.335 Y28.191 E.0173
;WIDTH:0.467767
G1 X210.373 Y28.302 E.00414
;WIDTH:0.507115
G1 X210.41 Y28.414 E.00455
;WIDTH:0.546463
G1 X210.447 Y28.525 E.0049
;WIDTH:0.57257
G1 X210.439 Y28.897 E.01639
G1 X210.389 Y29.016 E.00568
;WIDTH:0.534428
G1 X210.338 Y29.135 E.00529
;WIDTH:0.496285
G1 X210.288 Y29.254 E.00487
;WIDTH:0.458142
G1 X210.237 Y29.373 E.00447
;WIDTH:0.419999
G1 X210.005 Y29.813 E.0156
G1 X209.517 Y30.32 E.02206
G1 X209.351 Y30.435 E.00633
G1 X208.848 Y30.665 E.01734
G1 X208.265 Y30.769 E.01857
G1 X207.714 Y30.713 E.01737
G1 X207.158 Y30.498 E.01869
G1 X206.725 Y30.193 E.01661
G1 X206.353 Y29.753 E.01807
G1 X206.1 Y29.17 E.01993
G1 X206.016 Y28.646 E.01664
G1 X206.088 Y28.025 E.0196
G1 X206.223 Y27.677 E.0117
M204 S1000
G1 X206.223 Y27.677 F10800
G1 X206.579 Y27.785
M204 S800
;TYPE:External perimeter
G1 F1200
G1 X206.586 Y27.765 E.00066
G1 X206.81 Y27.427 E.01271
G1 X207.238 Y27.052 E.01784
G1 X207.81 Y26.817 E.01939
G1 X208.266 Y26.776 E.01436
G1 X208.825 Y26.886 E.01786
G1 X209.232 Y27.098 E.01439
G1 X209.643 Y27.493 E.01787
G1 X209.878 Y27.907 E.01493
G1 X210.003 Y28.447 E.01738
G1 X209.979 Y28.912 E.0146
G1 X209.859 Y29.306 E.01291
G1 X209.644 Y29.67 E.01326
G1 X209.248 Y30.056 E.01734
G1 X208.691 Y30.322 E.01935
G1 X208.253 Y30.392 E.01391
G1 X207.811 Y30.347 E.01393
G1 X207.292 Y30.146 E.01745
G1 X206.924 Y29.864 E.01454
G1 X206.663 Y29.533 E.01322
G1 X206.447 Y29.023 E.01737
G1 X206.391 Y28.56 E.01462
G1 X206.443 Y28.151 E.01293
G1 X206.558 Y27.841 E.01037
M204 S1000
;WIPE_START
G1 F8640
G1 X206.579 Y27.785 E-.01381
G1 X206.586 Y27.765 E-.00489
G1 X206.81 Y27.427 E-.09363
G1 X207.238 Y27.052 E-.13139
G1 X207.81 Y26.817 E-.14279
G1 X208.266 Y26.776 E-.10572
G1 X208.825 Y26.886 E-.13155
G1 X209.232 Y27.098 E-.10596
G1 X209.643 Y27.493 E-.13162
G1 X209.878 Y27.907 E-.10992
G1 X209.906 Y28.028 E-.02872
;WIPE_END
G1 Z.4 F720
G1 X219.619 Y30.219 F10800
G1 Z.2 F720
G1 E1 F2100
M204 S800
;TYPE:Perimeter
G1 F1200
G1 X219.513 Y30.323 E.00466
G1 X219.351 Y30.435 E.00618
G1 X218.848 Y30.665 E.01734
G1 X218.327 Y30.763 E.01662
G1 X217.795 Y30.731 E.01671
G1 X217.158 Y30.498 E.02127
G1 X216.725 Y30.193 E.01661
G1 X216.347 Y29.712 E.01918
G1 X216.212 Y29.488 E.0082
;WIDTH:0.468995
G1 X216.111 Y29.254 E.00903
;WIDTH:0.517991
G1 X216.01 Y29.019 E.0101
;WIDTH:0.552941
G1 X215.95 Y28.654 E.01569
G1 X215.979 Y28.487 E.00719
;WIDTH:0.518931
G1 X216.007 Y28.319 E.00674
;WIDTH:0.48492
G1 X216.109 Y27.998 E.01238
;WIDTH:0.45246
G1 X216.212 Y27.676 E.01151
;WIDTH:0.419999
G1 X216.529 Y27.172 E.01867
G1 X216.992 Y26.766 E.01931
G1 X217.157 Y26.666 E.00605
G1 X217.673 Y26.465 E.01736
G1 X218.24 Y26.396 E.01791
G1 X218.897 Y26.515 E.02093
G1 X219.364 Y26.733 E.01616
G1 X219.904 Y27.22 E.0228
G1 X220.187 Y27.672 E.01672
G1 X220.371 Y28.361 E.02236
G1 X220.363 Y28.891 E.01662
G1 X220.188 Y29.49 E.01957
G1 X219.919 Y29.924 E.01601
G1 X219.662 Y30.177 E.01131
M204 S1000
G1 X219.662 Y30.177 F10800
G1 X219.372 Y29.934
M204 S800
;TYPE:External perimeter
G1 F1200
G1 X219.249 Y30.055 E.00541
G1 X218.691 Y30.322 E.0194
G1 X218.231 Y30.391 E.01458
G1 X217.811 Y30.347 E.01324
G1 X217.294 Y30.147 E.01738
G1 X216.918 Y29.856 E.01491
G1 X216.592 Y29.408 E.01737
G1 X216.433 Y28.971 E.01458
G1 X216.391 Y28.56 E.01295
G1 X216.443 Y28.151 E.01293
G1 X216.586 Y27.764 E.01294
G1 X216.821 Y27.413 E.01324
G1 X217.239 Y27.051 E.01734
G1 X217.81 Y26.817 E.01935
G1 X218.233 Y26.773 E.01333
G1 X218.825 Y26.886 E.0189
G1 X219.232 Y27.098 E.01439
G1 X219.645 Y27.494 E.01794
G1 X219.878 Y27.907 E.01487
G1 X220.003 Y28.447 E.01738
G1 X219.979 Y28.912 E.0146
G1 X219.859 Y29.306 E.01291
G1 X219.634 Y29.675 E.01355
G1 X219.414 Y29.891 E.00967
M204 S1000
;WIPE_START
G1 F8640
